(molding and casting)
(T1  D=3. CR=0. - ZMIN=-18. - flat end mill)
G90
G53 G0 Z0.

(Adaptive2)
T1 M6 (flat end mill D=3.)
S5000 M3
G64
G54
G43 H1
G0 X-13.973 Y1.576
Z15.
Z5.
Z2.5
G3 X-16.028 Y2.18 Z2.417 I-1.33 J-0.726 F666.7
X-16.552 Y1.706 Z2.392 I0.726 J-1.33
X-16.159 Y-0.397 Z2.309 I1.248 J-0.855
X-15.499 Y-0.649 Z2.284 I0.855 J1.248
X-13.806 Y0.654 Z2.201 I0.195 J1.498
X-13.881 Y1.355 Z2.176 I-1.498 J0.195
X-15.808 Y2.272 Z2.093 I-1.422 J-0.505
X-16.398 Y1.888 Z2.068 I0.505 J-1.422
X-16.341 Y-0.243 Z1.985 I1.094 J-1.037
X-15.731 Y-0.594 Z1.96 I1.037 J1.094
X-13.861 Y0.423 Z1.877 I0.427 J1.444
X-13.824 Y1.124 Z1.852 I-1.444 J0.427
X-15.577 Y2.328 Z1.769 I-1.478 J-0.274
X-16.218 Y2.043 Z1.744 I0.274 J-1.478
X-16.495 Y-0.063 Z1.661 I0.914 J-1.191
X-15.951 Y-0.504 Z1.636 I1.191 J0.914
X-13.951 Y0.203 Z1.553 I0.646 J1.353
X-13.805 Y0.888 Z1.528 I-1.353 J0.646
X-15.341 Y2.347 Z1.445 I-1.497 J-0.038
X-16.016 Y2.167 Z1.42 I0.038 J-1.497
X-16.619 Y0.139 Z1.337 I0.712 J-1.315
X-16.153 Y-0.38 Z1.312 I1.315 J0.712
X-14.075 Y0.002 Z1.229 I0.848 J1.23
X-13.824 Y0.652 Z1.204 I-1.23 J0.848
X-15.106 Y2.329 Z1.121 I-1.479 J0.197
X-15.798 Y2.257 Z1.096 I-0.197 J-1.479
X-16.709 Y0.357 Z1.013 I0.495 J-1.406
X-16.332 Y-0.227 Z0.988 I1.406 J0.495
X-14.228 Y-0.177 Z0.905 I1.027 J1.077
X-13.879 Y0.423 Z0.88 I-1.077 J1.027
X-14.877 Y2.274 Z0.797 I-1.424 J0.426
X-15.569 Y2.312 Z0.772 I-0.426 J-1.424
X-16.764 Y0.585 Z0.689 I0.266 J-1.461
X-16.484 Y-0.049 Z0.664 I1.461 J0.266
X-14.406 Y-0.329 Z0.581 I1.179 J0.899
X-13.969 Y0.207 Z0.556 I-0.899 J1.179
X-14.661 Y2.184 Z0.473 I-1.334 J0.642
X-15.336 Y2.33 Z0.448 I-0.642 J-1.334
X-16.782 Y0.818 Z0.365 I0.033 J-1.479
X-16.606 Y0.151 Z0.34 I1.479 J0.033
X-14.606 Y-0.451 Z0.257 I1.301 J0.699
X-14.091 Y0.008 Z0.232 I-0.699 J1.301
X-14.462 Y2.061 Z0.149 I-1.212 J0.841
X-15.104 Y2.311 Z0.124 I-0.841 J-1.212
X-16.763 Y1.051 Z0.041 I-0.199 J-1.46
X-16.694 Y0.367 Z0.016 I1.46 J-0.199
X-14.821 Y-0.539 Z-0.067 I1.39 J0.484
X-14.243 Y-0.168 Z-0.092 I-0.484 J1.39
X-14.286 Y1.909 Z-0.175 I-1.06 J1.017
X-14.878 Y2.256 Z-0.2 I-1.017 J-1.06
X-16.708 Y1.276 Z-0.283 I-0.425 J-1.405
X-16.748 Y0.592 Z-0.308 I1.405 J-0.425
X-15.046 Y-0.592 Z-0.391 I1.443 J0.258
X-14.42 Y-0.318 Z-0.416 I-0.258 J1.443
X-14.136 Y1.733 Z-0.499 I-0.884 J1.167
X-14.664 Y2.166 Z-0.524 I-1.167 J-0.884
X-16.618 Y1.489 Z-0.607 I-0.638 J-1.315
X-16.764 Y0.823 Z-0.632 I1.315 J-0.638
X-15.277 Y-0.609 Z-0.715 I1.46 J0.028
X-14.617 Y-0.438 Z-0.74 I-0.028 J1.46
X-14.017 Y1.535 Z-0.823 I-0.686 J1.287
X-14.469 Y2.044 Z-0.848 I-1.287 J-0.686
X-16.496 Y1.685 Z-0.931 I-0.834 J-1.194
X-16.745 Y1.052 Z-0.956 I1.194 J-0.834
X-15.506 Y-0.59 Z-1.039 I1.44 J-0.201
X-14.831 Y-0.524 Z-1.064 I0.201 J1.44
X-13.931 Y1.322 Z-1.147 I-0.473 J1.373
X-14.295 Y1.894 Z-1.172 I-1.373 J-0.473
X-16.346 Y1.858 Z-1.255 I-1.008 J-1.044
X-16.69 Y1.275 Z-1.28 I1.044 J-1.008
X-15.728 Y-0.534 Z-1.363 I1.385 J-0.424
X-15.054 Y-0.576 Z-1.388 I0.424 J1.385
X-13.879 Y1.1 Z-1.471 I-0.25 J1.425
X-14.148 Y1.719 Z-1.496 I-1.425 J-0.25
X-16.171 Y2.005 Z-1.579 I-1.155 J-0.869
X-16.601 Y1.485 Z-1.604 I0.869 J-1.155
X-15.939 Y-0.445 Z-1.687 I1.296 J-0.634
X-15.281 Y-0.592 Z-1.712 I0.634 J1.296
X-13.863 Y0.872 Z-1.795 I-0.023 J1.441
X-14.03 Y1.523 Z-1.82 I-1.441 J-0.023
X-15.976 Y2.122 Z-1.903 I-1.272 J-0.673
X-16.48 Y1.678 Z-1.928 I0.673 J-1.272
X-16.131 Y-0.324 Z-2.011 I1.176 J-0.827
X-15.508 Y-0.572 Z-2.036 I0.827 J1.176
X-13.883 Y0.646 Z-2.119 I0.203 J1.421
X-13.946 Y1.313 Z-2.144 I-1.421 J0.203
X-15.766 Y2.207 Z-2.227 I-1.357 J-0.463
X-16.331 Y1.849 Z-2.252 I0.463 J-1.357
X-16.302 Y-0.176 Z-2.335 I1.027 J-0.998
X-15.727 Y-0.517 Z-2.36 I0.998 J1.027
X-13.939 Y0.427 Z-2.443 I0.423 J1.366
X-13.895 Y1.092 Z-2.468 I-1.366 J0.423
X-15.545 Y2.257 Z-2.551 I-1.407 J-0.243
X-16.157 Y1.994 Z-2.576 I0.243 J-1.407
X-16.446 Y-0.002 Z-2.659 I0.854 J-1.143
X-15.935 Y-0.428 Z-2.684 I1.143 J0.854
X-14.027 Y0.22 Z-2.767 I0.63 J1.277
X-13.88 Y0.868 Z-2.792 I-1.277 J0.63
X-15.321 Y2.272 Z-2.875 I-1.422 J-0.018
X-15.964 Y2.109 Z-2.9 I0.018 J-1.422
X-16.561 Y0.191 Z-2.983 I0.661 J-1.258
X-16.125 Y-0.308 Z-3.008 I1.258 J0.661
X-14.147 Y0.03 Z-3.091 I0.82 J1.158
X-13.901 Y0.644 Z-3.116 I-1.158 J0.82
X-15.098 Y2.251 Z-3.199 I-1.402 J0.205
X-15.756 Y2.192 Z-3.224 I-0.205 J-1.402
X-16.644 Y0.399 Z-3.307 I0.453 J-1.341
X-16.293 Y-0.16 Z-3.332 I1.341 J0.453
X-14.295 Y-0.138 Z-3.415 I0.988 J1.01
X-13.956 Y0.428 Z-3.44 I-1.01 J0.988
X-14.881 Y2.196 Z-3.523 I-1.347 J0.422
X-15.538 Y2.241 Z-3.548 I-0.422 J-1.347
X-16.693 Y0.616 Z-3.631 I0.235 J-1.389
X-16.435 Y0.011 Z-3.656 I1.389 J0.235
X-14.466 Y-0.28 Z-3.739 I1.13 J0.839
X-14.045 Y0.224 Z-3.764 I-0.839 J1.13
X-14.677 Y2.108 Z-3.847 I-1.258 J0.626
X-15.316 Y2.255 Z-3.872 I-0.626 J-1.258
X-16.707 Y0.838 Z-3.955 I0.013 J-1.404
X-16.548 Y0.202 Z-3.98 I1.404 J0.013
X-14.657 Y-0.393 Z-4.063 I1.243 J0.648
X-14.164 Y0.037 Z-4.088 I-0.648 J1.243
X-14.491 Y1.989 Z-4.171 I-1.14 J0.813
X-15.096 Y2.234 Z-4.196 I-0.813 J-1.14
X-16.685 Y1.058 Z-4.279 I-0.207 J-1.383
X-16.629 Y0.408 Z-4.304 I1.383 J-0.207
X-14.862 Y-0.474 Z-4.387 I1.324 J0.442
X-14.31 Y-0.129 Z-4.412 I-0.442 J1.324
X-14.325 Y1.843 Z-4.495 I-0.994 J0.978
X-14.883 Y2.178 Z-4.52 I-0.978 J-0.994
X-16.63 Y1.271 Z-4.603 I-0.42 J-1.327
X-16.676 Y0.623 Z-4.628 I1.327 J-0.42
X-15.077 Y-0.521 Z-4.711 I1.372 J0.228
X-14.48 Y-0.268 Z-4.736 I-0.228 J1.372
X-14.186 Y1.673 Z-4.819 I-0.824 J1.118
X-14.681 Y2.09 Z-4.844 I-1.118 J-0.824
X-16.542 Y1.472 Z-4.927 I-0.621 J-1.24
X-16.689 Y0.842 Z-4.952 I1.24 J-0.621
X-15.296 Y-0.534 Z-5.035 I1.385 J0.009
X-14.669 Y-0.379 Z-5.06 I-0.009 J1.385
X-14.075 Y1.484 Z-5.143 I-0.635 J1.228
X-14.497 Y1.972 Z-5.168 I-1.228 J-0.635
X-16.424 Y1.656 Z-5.251 I-0.805 J-1.122
X-16.668 Y1.059 Z-5.276 I1.122 J-0.805
X-15.513 Y-0.512 Z-5.359 I1.363 J-0.208
X-14.872 Y-0.458 Z-5.384 I0.208 J1.363
X-13.996 Y1.281 Z-5.467 I-0.432 J1.308
X-14.335 Y1.828 Z-5.492 I-1.308 J-0.432
X-16.28 Y1.818 Z-5.575 I-0.968 J-0.977
X-16.612 Y1.27 Z-5.6 I0.977 J-0.968
X-15.723 Y-0.457 Z-5.683 I1.308 J-0.419
X-15.084 Y-0.505 Z-5.708 I0.419 J1.308
X-13.95 Y1.069 Z-5.791 I-0.22 J1.354
X-14.198 Y1.66 Z-5.816 I-1.354 J-0.22
X-16.112 Y1.955 Z-5.899 I-1.105 J-0.809
X-16.525 Y1.468 Z-5.924 I0.809 J-1.105
X-15.921 Y-0.37 Z-6.007 I1.221 J-0.617
X-15.3 Y-0.517 Z-6.032 I0.617 J1.221
X-13.938 Y0.854 Z-6.115 I-0.004 J1.366
X-14.089 Y1.473 Z-6.14 I-1.366 J-0.004
X-15.925 Y2.064 Z-6.223 I-1.214 J-0.623
X-16.408 Y1.649 Z-6.248 I0.623 J-1.214
X-16.102 Y-0.253 Z-6.331 I1.104 J-0.798
X-15.514 Y-0.495 Z-6.356 I0.798 J1.104
X-13.96 Y0.64 Z-6.439 I0.21 J1.344
X-14.012 Y1.272 Z-6.464 I-1.344 J0.21
X-15.725 Y2.141 Z-6.547 I-1.291 J-0.422
X-16.265 Y1.809 Z-6.572 I0.422 J-1.291
X-16.262 Y-0.109 Z-6.655 I0.961 J-0.958
X-15.721 Y-0.439 Z-6.68 I0.958 J0.961
X-14.016 Y0.433 Z-6.763 I0.417 J1.289
X-13.967 Y1.063 Z-6.788 I-1.289 J0.417
X-15.516 Y2.186 Z-6.871 I-1.336 J-0.213
X-16.098 Y1.944 Z-6.896 I0.213 J-1.336
X-16.396 Y0.057 Z-6.979 I0.795 J-1.092
X-15.917 Y-0.352 Z-7.004 I1.092 J0.795
X-14.103 Y0.238 Z-7.087 I0.612 J1.202
X-13.956 Y0.85 Z-7.112 I-1.202 J0.612
X-15.305 Y2.199 I-1.349 J0.
X-16.654 Y0.85 I0. J-1.349
X-15.305 Y-0.499 I1.349 J0.
X-13.956 Y0.85 I0. J1.349
G1 X-13.928 Y1.473 F2000
X-13.906 Y1.548
X-13.883 Y1.696
X-13.892 Y1.846
X-13.925 Y1.992
X-13.98 Y2.131
X-14.053 Y2.263
X-14.142 Y2.384
X-14.243 Y2.495
X-14.355 Y2.594
X-14.477 Y2.682
X-14.606 Y2.758
X-14.742 Y2.822
X-14.883 Y2.873
X-15.028 Y2.912
X-15.175 Y2.939
X-15.325 Y2.954
X-15.478 Y2.957
X-15.633 Y2.947
X-15.79 Y2.925
X-15.945 Y2.89
X-16.1 Y2.842
X-16.251 Y2.781
X-16.398 Y2.707
X-16.54 Y2.621
X-16.676 Y2.523
X-16.804 Y2.415
X-16.924 Y2.295
X-17.034 Y2.166
X-17.134 Y2.027
X-17.223 Y1.881
X-17.3 Y1.727
X-17.318 Y1.683
X-17.35 Y1.582
X-17.366 Y1.478
X-17.367 Y1.372
X-17.351 Y1.134
X-17.326 Y0.85
X-17.294 Y0.567
X-17.286 Y0.513
X-17.249 Y0.283
X-17.208 Y0.097
X-17.163 Y-0.046
X-17.106 Y-0.185
X-17.038 Y-0.318
X-16.96 Y-0.446
X-16.869 Y-0.569
X-16.768 Y-0.686
X-16.655 Y-0.796
X-16.533 Y-0.898
X-16.402 Y-0.992
X-16.262 Y-1.075
X-16.114 Y-1.147
X-15.96 Y-1.207
X-15.8 Y-1.256
X-15.636 Y-1.291
X-15.469 Y-1.314
X-15.299 Y-1.323
X-15.129 Y-1.318
X-14.959 Y-1.3
X-14.79 Y-1.268
X-14.624 Y-1.222
X-14.461 Y-1.163
X-14.304 Y-1.091
X-14.152 Y-1.007
X-14.008 Y-0.91
X-13.871 Y-0.802
X-13.744 Y-0.683
X-13.626 Y-0.554
X-13.519 Y-0.416
X-13.506 Y-0.397
X-13.427 Y-0.233
X-13.393 Y-0.054
X-13.406 Y0.127
X-13.438 Y0.283
X-13.492 Y0.567
X-13.542 Y0.85
X-13.585 Y1.134
X-13.611 Y1.417
X-13.631 Y1.7
X-13.646 Y1.984
X-13.663 Y2.353
X-13.676 Y2.502
X-13.714 Y2.647
X-13.77 Y2.786
X-13.841 Y2.918
X-13.926 Y3.042
X-14.022 Y3.157
X-14.129 Y3.263
X-14.244 Y3.359
X-14.371 Y3.449
X-14.509 Y3.531
X-14.66 Y3.605
X-14.824 Y3.669
X-15. Y3.722
X-15.183 Y3.762
X-15.374 Y3.788
X-15.571 Y3.799
X-15.775 Y3.793
X-15.982 Y3.771
X-16.192 Y3.731
X-16.403 Y3.673
X-16.612 Y3.597
X-16.817 Y3.504
X-17.016 Y3.392
X-17.115 Y3.326
X-17.247 Y3.211
X-17.347 Y3.068
X-17.408 Y2.904
X-17.426 Y2.73
X-17.422 Y2.55
X-17.412 Y2.267
X-17.4 Y1.984
X-17.387 Y1.7
X-17.367 Y1.372
G3 X-17.047 Y1.094 Z-6.912 I0.299 J0.021
X-16.769 Y1.413 I-0.02 J0.299
X-17.088 Y1.692 I-0.299 J-0.02
X-17.367 Y1.372 I0.02 J-0.299
X-17.342 Y1.271 I0.299 J0.02
G1 X-17.146 Y0.83
G3 X-16.75 Y0.678 I0.274 J0.122
X-16.598 Y1.074 I-0.122 J0.274
X-16.994 Y1.226 I-0.274 J-0.122
X-17.151 Y1.063 I0.122 J-0.274
X-17.238 Y0.753 I1.472 J-0.582
X-17.249 Y0.283 Z-7.112 I1.559 J-0.272
G1 X-17.2 Y0.
X-17.148 Y-0.283
X-17.092 Y-0.567
X-17.033 Y-0.85
X-17.016 Y-0.926
X-16.977 Y-1.07
X-16.918 Y-1.208
X-16.842 Y-1.338
X-16.753 Y-1.458
X-16.653 Y-1.57
X-16.542 Y-1.671
X-16.423 Y-1.764
X-16.291 Y-1.851
X-16.144 Y-1.931
X-15.981 Y-2.004
X-15.808 Y-2.065
X-15.626 Y-2.113
X-15.434 Y-2.148
X-15.232 Y-2.168
X-15.022 Y-2.172
X-14.807 Y-2.159
X-14.589 Y-2.128
X-14.371 Y-2.078
X-14.154 Y-2.011
X-13.941 Y-1.925
X-13.732 Y-1.82
X-13.545 Y-1.707
X-13.382 Y-1.59
X-13.37 Y-1.58
X-13.235 Y-1.426
X-13.151 Y-1.24
X-13.123 Y-1.038
X-13.155 Y-0.836
X-13.24 Y-0.567
X-13.319 Y-0.274
X-13.38 Y0.
X-13.406 Y0.127
G3 X-13.613 Y0.345 Z-6.979 I-0.292 J-0.071
G1 X-13.664 Y0.356 Z-6.957
X-13.716 Y0.36 Z-6.934
X-13.768 Y0.356 Z-6.912
G3 X-14.086 Y-0.062 I0.05 J-0.368
X-14.025 Y-0.221 I0.368 J0.05
X-13.534 Y-0.6 I0.827 J0.563
G1 X-13.459 Y-0.624 Z-6.945
X-13.383 Y-0.641 Z-6.979
G2 X-13.155 Y-0.836 Z-7.112 I-0.055 J-0.295
G1 X-13.036 Y-1.199 F1800
X-12.995 Y-1.319
X-12.955 Y-1.463
X-12.958 Y-1.613
X-12.989 Y-1.76
X-13.042 Y-1.9
X-13.111 Y-2.034
X-13.193 Y-2.159
X-13.286 Y-2.277
X-13.395 Y-2.391
X-13.516 Y-2.5
X-13.659 Y-2.61
X-13.82 Y-2.713
X-13.994 Y-2.806
X-14.186 Y-2.89
X-14.394 Y-2.962
X-14.615 Y-3.018
X-14.845 Y-3.058
X-15.081 Y-3.079
X-15.32 Y-3.081
X-15.561 Y-3.064
X-15.798 Y-3.028
X-16.03 Y-2.973
X-16.104 Y-2.949
X-16.299 Y-2.851
X-16.454 Y-2.697
X-16.554 Y-2.503
X-16.726 Y-1.984
X-16.816 Y-1.7
X-16.9 Y-1.417
X-16.97 Y-1.134
X-17.016 Y-0.926
G2 X-16.776 Y-0.576 Z-6.912 I0.295 J0.054 F2000
X-16.336 Y-0.865 I0.069 J-0.375
X-16.429 Y-2.062 I-1.949 J-0.451
G1 X-16.476 Y-2.17 Z-6.962
X-16.529 Y-2.275 Z-7.012
X-16.552 Y-2.329 Z-7.037
X-16.564 Y-2.387 Z-7.062
X-16.565 Y-2.446 Z-7.087
X-16.554 Y-2.503 Z-7.112
X-16.436 Y-2.849
X-16.384 Y-2.997
X-16.327 Y-3.135
X-16.248 Y-3.263
X-16.15 Y-3.377
X-16.039 Y-3.477
X-15.917 Y-3.564
X-15.787 Y-3.639
X-15.65 Y-3.703
X-15.498 Y-3.76
X-15.325 Y-3.81
X-15.143 Y-3.846
X-14.947 Y-3.869
X-14.737 Y-3.877
X-14.517 Y-3.867
X-14.294 Y-3.839
X-14.069 Y-3.793
X-13.846 Y-3.728
X-13.629 Y-3.644
X-13.42 Y-3.545
X-13.225 Y-3.432
X-13.046 Y-3.308
X-12.883 Y-3.174
X-12.78 Y-3.075
X-12.651 Y-2.905
X-12.579 Y-2.705
X-12.57 Y-2.493
X-12.625 Y-2.287
X-12.757 Y-1.984
X-12.865 Y-1.7
X-12.995 Y-1.319
G3 X-13.227 Y-1.128 Z-6.979 I-0.281 J-0.105
G1 X-13.279 Y-1.123 Z-6.957
X-13.331 Y-1.126 Z-6.934
X-13.383 Y-1.135 Z-6.912
G3 X-13.658 Y-1.597 I0.093 J-0.368
X-13.589 Y-1.737 I0.368 J0.093
X-13.029 Y-2.095 I0.788 J0.616
G1 X-12.952 Y-2.11 Z-6.945
X-12.874 Y-2.119 Z-6.979
G2 X-12.625 Y-2.287 Z-7.112 I-0.022 J-0.299
G1 X-12.422 Y-2.747 F1800
X-12.368 Y-2.887
X-12.351 Y-3.036
X-12.363 Y-3.186
X-12.397 Y-3.332
X-12.449 Y-3.473
X-12.515 Y-3.607
X-12.593 Y-3.735
X-12.686 Y-3.862
X-12.796 Y-3.987
X-12.922 Y-4.111
X-13.072 Y-4.236
X-13.239 Y-4.353
X-13.42 Y-4.46
X-13.622 Y-4.558
X-13.841 Y-4.644
X-14.072 Y-4.713
X-14.311 Y-4.764
X-14.555 Y-4.797
X-14.8 Y-4.809
X-15.041 Y-4.802
X-15.277 Y-4.776
X-15.297 Y-4.772
X-15.506 Y-4.696
X-15.681 Y-4.557
X-15.803 Y-4.371
X-16.108 Y-3.684
X-16.153 Y-3.581
X-16.229 Y-3.401
X-16.342 Y-3.117
X-16.384 Y-2.997
G2 X-16.319 Y-2.704 Z-6.979 I0.286 J0.09 F2000
G1 X-16.28 Y-2.669 Z-6.957
X-16.236 Y-2.642 Z-6.934
X-16.187 Y-2.623 Z-6.912
G2 X-15.936 Y-2.672 I0.077 J-0.273
X-15.676 Y-3.943 I-0.616 J-0.788
G1 X-15.717 Y-4.01 Z-6.945
X-15.762 Y-4.074 Z-6.979
G3 X-15.803 Y-4.371 Z-7.112 I0.237 J-0.184
G1 X-15.73 Y-4.534
X-15.611 Y-4.817
X-15.547 Y-4.953
X-15.457 Y-5.073
X-15.348 Y-5.176
X-15.226 Y-5.264
X-15.096 Y-5.338
X-14.958 Y-5.398
X-14.816 Y-5.447
X-14.657 Y-5.487
X-14.481 Y-5.516
X-14.298 Y-5.532
X-14.098 Y-5.533
X-13.885 Y-5.517
X-13.668 Y-5.484
X-13.449 Y-5.431
X-13.229 Y-5.359
X-13.012 Y-5.269
X-12.802 Y-5.161
X-12.604 Y-5.038
X-12.421 Y-4.902
X-12.254 Y-4.757
X-12.104 Y-4.603
X-12.034 Y-4.518
X-11.927 Y-4.343
X-11.876 Y-4.146
X-11.884 Y-3.942
X-11.951 Y-3.749
X-12.13 Y-3.401
X-12.185 Y-3.287
X-12.258 Y-3.117
X-12.422 Y-2.747
G3 X-12.67 Y-2.579 Z-6.979 I-0.27 J-0.131
G1 X-12.722 Z-6.957
X-12.774 Y-2.586 Z-6.934
X-12.825 Y-2.6 Z-6.912
G3 X-13.057 Y-3.087 I0.127 J-0.359
X-13.006 Y-3.184 I0.359 J0.127
X-12.365 Y-3.582 I0.809 J0.588
G1 X-12.287 Y-3.592 Z-6.945
X-12.208 Y-3.596 Z-6.979
G2 X-11.951 Y-3.749 Z-7.112 I-0.004 J-0.3
G1 X-11.72 Y-4.193 F1800
X-11.658 Y-4.33
X-11.631 Y-4.477
X-11.632 Y-4.627
X-11.654 Y-4.776
X-11.694 Y-4.92
X-11.749 Y-5.06
X-11.816 Y-5.194
X-11.896 Y-5.325
X-11.998 Y-5.464
X-12.114 Y-5.599
X-12.25 Y-5.734
X-12.409 Y-5.868
X-12.586 Y-5.993
X-12.777 Y-6.108
X-12.986 Y-6.211
X-13.21 Y-6.3
X-13.443 Y-6.371
X-13.683 Y-6.424
X-13.925 Y-6.458
X-14.164 Y-6.471
X-14.396 Y-6.466
X-14.412 Y-6.464
X-14.58 Y-6.425
X-14.733 Y-6.347
X-14.863 Y-6.233
X-14.961 Y-6.091
X-15.473 Y-5.101
X-15.586 Y-4.878
X-15.611 Y-4.817
G2 X-15.561 Y-4.522 Z-6.979 I0.281 J0.105 F2000
G1 X-15.525 Y-4.484 Z-6.957
X-15.483 Y-4.453 Z-6.934
X-15.437 Y-4.429 Z-6.912
G2 X-15.087 Y-4.489 I0.128 J-0.302
X-14.859 Y-5.656 I-0.675 J-0.738
G1 X-14.895 Y-5.726 Z-6.945
X-14.937 Y-5.792 Z-6.979
G3 X-14.961 Y-6.091 Z-7.112 I0.247 J-0.17
G1 X-14.736 Y-6.526
X-14.656 Y-6.653
X-14.558 Y-6.766
X-14.441 Y-6.861
X-14.314 Y-6.94
X-14.178 Y-7.003
X-14.036 Y-7.053
X-13.891 Y-7.09
X-13.73 Y-7.116
X-13.554 Y-7.132
X-13.372 Y-7.133
X-13.174 Y-7.118
X-12.964 Y-7.085
X-12.752 Y-7.034
X-12.538 Y-6.964
X-12.325 Y-6.875
X-12.116 Y-6.767
X-11.915 Y-6.641
X-11.726 Y-6.502
X-11.553 Y-6.351
X-11.398 Y-6.191
X-11.26 Y-6.024
X-11.206 Y-5.947
X-11.115 Y-5.768
X-11.079 Y-5.571
X-11.1 Y-5.372
X-11.177 Y-5.187
X-11.228 Y-5.101
X-11.335 Y-4.918
X-11.392 Y-4.817
X-11.544 Y-4.534
X-11.72 Y-4.193
G3 X-11.978 Y-4.041 Z-6.979 I-0.261 J-0.147
G1 X-12.03 Y-4.044 Z-6.957
X-12.082 Y-4.054 Z-6.934
X-12.131 Y-4.071 Z-6.912
G3 X-12.335 Y-4.572 I0.149 J-0.353
X-12.288 Y-4.654 I0.353 J0.149
X-11.6 Y-5.045 I0.797 J0.604
G1 X-11.522 Y-5.05 Z-6.945
X-11.443 Z-6.979
G2 X-11.177 Y-5.187 Z-7.112 I0.014 J-0.3
G1 X-10.924 Y-5.613 F1800
X-10.853 Y-5.745
X-10.816 Y-5.891
X-10.807 Y-6.04
X-10.818 Y-6.19
X-10.848 Y-6.337
X-10.892 Y-6.48
X-10.95 Y-6.619
X-11.02 Y-6.754
X-11.111 Y-6.899
X-11.219 Y-7.045
X-11.344 Y-7.188
X-11.492 Y-7.332
X-11.66 Y-7.471
X-11.844 Y-7.6
X-12.044 Y-7.717
X-12.258 Y-7.821
X-12.484 Y-7.908
X-12.718 Y-7.978
X-12.955 Y-8.028
X-13.19 Y-8.059
X-13.418 Y-8.07
X-13.45 Y-8.069
X-13.622 Y-8.042
X-13.782 Y-7.973
X-13.92 Y-7.866
X-14.028 Y-7.729
X-14.452 Y-7.016
X-14.581 Y-6.801
X-14.736 Y-6.526
G2 X-14.711 Y-6.228 Z-6.979 I0.272 J0.128 F2000
G1 X-14.678 Y-6.187 Z-6.957
X-14.638 Y-6.152 Z-6.934
X-14.594 Y-6.124 Z-6.912
G2 X-14.213 Y-6.169 I0.158 J-0.294
X-13.952 Y-7.289 I-0.667 J-0.745
G1 X-13.985 Y-7.361 Z-6.945
X-14.022 Y-7.429 Z-6.979
G3 X-14.028 Y-7.729 Z-7.112 I0.257 J-0.154
G1 X-13.886 Y-7.966
X-13.762 Y-8.167
X-13.677 Y-8.291
X-13.569 Y-8.394
X-13.445 Y-8.479
X-13.311 Y-8.546
X-13.17 Y-8.599
X-13.025 Y-8.637
X-12.877 Y-8.662
X-12.715 Y-8.677
X-12.536 Y-8.678
X-12.353 Y-8.665
X-12.156 Y-8.635
X-11.948 Y-8.585
X-11.739 Y-8.518
X-11.53 Y-8.431
X-11.324 Y-8.325
X-11.124 Y-8.201
X-10.933 Y-8.061
X-10.755 Y-7.907
X-10.595 Y-7.743
X-10.453 Y-7.573
X-10.328 Y-7.396
X-10.279 Y-7.313
X-10.201 Y-7.124
X-10.182 Y-6.921
X-10.222 Y-6.721
X-10.318 Y-6.541
X-10.485 Y-6.311
X-10.54 Y-6.234
X-10.722 Y-5.951
X-10.924 Y-5.613
G3 X-11.19 Y-5.476 Z-6.979 I-0.252 J-0.162
G1 X-11.268 Y-5.487 Z-6.945
X-11.341 Y-5.514 Z-6.912
G3 X-11.527 Y-6.038 I0.17 J-0.355
X-11.45 Y-6.146 I0.355 J0.17
X-10.753 Y-6.441 I0.709 J0.705
G1 X-10.674 Y-6.439 Z-6.945
X-10.596 Y-6.43 Z-6.979
G2 X-10.318 Y-6.541 Z-7.112 I0.044 J-0.297
G1 X-10.125 Y-6.801 F1800
X-10.011 Y-6.95
X-9.926 Y-7.074
X-9.88 Y-7.217
X-9.86 Y-7.365
Y-7.515
X-9.878 Y-7.664
X-9.912 Y-7.81
X-9.959 Y-7.953
X-10.019 Y-8.095
X-10.099 Y-8.248
X-10.195 Y-8.401
X-10.31 Y-8.556
X-10.447 Y-8.712
X-10.605 Y-8.865
X-10.779 Y-9.008
X-10.97 Y-9.142
X-11.178 Y-9.263
X-11.398 Y-9.369
X-11.628 Y-9.457
X-11.862 Y-9.526
X-12.096 Y-9.576
X-12.27 Y-9.598
X-12.453 Y-9.597
X-12.629 Y-9.549
X-12.787 Y-9.457
X-12.915 Y-9.328
X-13.036 Y-9.17
X-13.322 Y-8.785
X-13.529 Y-8.501
X-13.602 Y-8.4
X-13.731 Y-8.218
X-13.762 Y-8.167
G2 X-13.76 Y-7.867 Z-6.979 I0.261 J0.148 F2000
G1 X-13.73 Y-7.825 Z-6.957
X-13.693 Y-7.787 Z-6.934
X-13.65 Y-7.757 Z-6.912
G2 X-13.332 Y-7.759 I0.157 J-0.266
X-12.889 Y-8.882 I-0.52 J-0.854
G1 X-12.913 Y-8.957 Z-6.945
X-12.943 Y-9.03 Z-6.979
G3 X-12.915 Y-9.328 Z-7.112 I0.273 J-0.125
G1 X-12.752 Y-9.538
X-12.675 Y-9.635
X-12.562 Y-9.769
X-12.459 Y-9.878
X-12.336 Y-9.963
X-12.201 Y-10.029
X-12.059 Y-10.077
X-11.912 Y-10.11
X-11.764 Y-10.13
X-11.605 Y-10.137
X-11.439 Y-10.13
X-11.261 Y-10.109
X-11.07 Y-10.071
X-10.874 Y-10.015
X-10.677 Y-9.94
X-10.475 Y-9.846
X-10.275 Y-9.731
X-10.082 Y-9.599
X-9.898 Y-9.45
X-9.728 Y-9.288
X-9.573 Y-9.115
X-9.435 Y-8.934
X-9.317 Y-8.749
X-9.219 Y-8.564
X-9.198 Y-8.517
X-9.146 Y-8.322
X-9.151 Y-8.121
X-9.213 Y-7.929
X-9.328 Y-7.763
X-9.43 Y-7.651
X-9.635 Y-7.42
X-9.68 Y-7.368
X-9.918 Y-7.073
X-10.011 Y-6.95
G3 X-10.291 Y-6.844 Z-6.979 I-0.232 J-0.19
G1 X-10.342 Y-6.856 Z-6.957
X-10.391 Y-6.875 Z-6.934
X-10.437 Y-6.9 Z-6.912
G3 X-10.552 Y-7.428 I0.207 J-0.321
X-10.452 Y-7.532 I0.321 J0.207
X-9.873 Y-7.718 I0.58 J0.815
G1 X-9.872
X-9.771 Y-7.713
X-9.694 Y-7.702 Z-6.945
X-9.617 Y-7.685 Z-6.979
G2 X-9.328 Y-7.763 Z-7.112 I0.077 J-0.29
G1 X-9.168 Y-7.935 F1800
X-9.068 Y-8.041
X-8.974 Y-8.138
X-8.875 Y-8.251
X-8.814 Y-8.388
X-8.779 Y-8.534
X-8.764 Y-8.683
X-8.767 Y-8.833
X-8.785 Y-8.982
X-8.817 Y-9.129
X-8.863 Y-9.279
X-8.925 Y-9.435
X-9.008 Y-9.602
X-9.107 Y-9.768
X-9.225 Y-9.935
X-9.367 Y-10.102
X-9.528 Y-10.266
X-9.707 Y-10.42
X-9.901 Y-10.561
X-10.109 Y-10.689
X-10.328 Y-10.801
X-10.555 Y-10.893
X-10.783 Y-10.966
X-10.946 Y-11.004
X-11.122 Y-11.023
X-11.297 Y-10.996
X-11.46 Y-10.926
X-11.6 Y-10.818
X-11.648 Y-10.768
X-11.918 Y-10.485
X-12.185 Y-10.195
X-12.469 Y-9.878
X-12.562 Y-9.769
G2 X-12.605 Y-9.472 Z-6.979 I0.235 J0.186 F2000
G1 X-12.582 Y-9.425 Z-6.957
X-12.55 Y-9.384 Z-6.934
X-12.511 Y-9.349 Z-6.912
X-12.459 Y-9.319
X-12.402 Y-9.3
X-12.343 Y-9.293
X-12.342
X-12.286 Y-9.299
X-12.231 Y-9.316
G2 X-11.634 Y-10.373 I-0.393 J-0.919
G1 X-11.648 Y-10.45 Z-6.945
X-11.668 Y-10.526 Z-6.979
G3 X-11.6 Y-10.818 Z-7.112 I0.287 J-0.087
G1 X-11.366 Y-11.052
X-11.335 Y-11.081
X-11.192 Y-11.211
X-11.077 Y-11.307
X-10.943 Y-11.376
X-10.802 Y-11.425
X-10.655 Y-11.456
X-10.506 Y-11.472
X-10.356 Y-11.474
X-10.199 Y-11.462
X-10.03 Y-11.436
X-9.857 Y-11.395
X-9.672 Y-11.334
X-9.48 Y-11.254
X-9.29 Y-11.157
X-9.102 Y-11.04
X-8.918 Y-10.904
X-8.741 Y-10.75
X-8.576 Y-10.581
X-8.426 Y-10.4
X-8.293 Y-10.212
X-8.179 Y-10.018
X-8.083 Y-9.821
X-8.007 Y-9.625
X-7.991 Y-9.572
X-7.961 Y-9.369
X-7.991 Y-9.166
X-8.079 Y-8.981
X-8.217 Y-8.829
X-8.501 Y-8.588
X-8.601 Y-8.501
X-8.785 Y-8.33
X-8.897 Y-8.218
X-8.974 Y-8.138
G3 X-9.265 Y-8.066 Z-6.979 I-0.208 J-0.216
G1 X-9.314 Y-8.084 Z-6.957
X-9.36 Y-8.108 Z-6.934
X-9.403 Y-8.139 Z-6.912
G3 X-9.452 Y-8.672 I0.242 J-0.291
X-9.321 Y-8.773 I0.291 J0.242
X-8.663 Y-8.839 I0.424 J0.906
G1 X-8.588 Y-8.818 Z-6.945
X-8.514 Y-8.791 Z-6.979
G2 X-8.217 Y-8.829 Z-7.112 I0.115 J-0.277
G1 X-7.926 Y-9.068 F1800
X-7.843 Y-9.133
X-7.729 Y-9.23
X-7.644 Y-9.354
X-7.585 Y-9.492
X-7.546 Y-9.637
X-7.526 Y-9.785
X-7.522 Y-9.935
X-7.533 Y-10.085
X-7.555 Y-10.233
X-7.594 Y-10.397
X-7.65 Y-10.567
X-7.722 Y-10.74
X-7.815 Y-10.922
X-7.93 Y-11.106
X-8.062 Y-11.285
X-8.213 Y-11.459
X-8.384 Y-11.627
X-8.573 Y-11.784
X-8.774 Y-11.926
X-8.986 Y-12.051
X-9.205 Y-12.158
X-9.425 Y-12.244
X-9.462 Y-12.255
X-9.684 Y-12.284
X-9.904 Y-12.242
X-10.099 Y-12.133
X-10.202 Y-12.051
X-10.386 Y-11.902
X-10.485 Y-11.821
X-10.768 Y-11.583
X-11.057 Y-11.335
X-11.192 Y-11.211
G2 X-11.273 Y-10.923 Z-6.979 I0.21 J0.214 F2000
G1 X-11.256 Y-10.873 Z-6.957
X-11.23 Y-10.828 Z-6.934
X-11.197 Y-10.788 Z-6.912
X-11.151 Y-10.75
X-11.099 Y-10.722
X-11.043 Y-10.704
X-10.984 Y-10.699
X-10.941 Y-10.702
X-10.9 Y-10.711
G2 X-10.183 Y-11.694 I-0.284 J-0.959
G1 X-10.188 Y-11.772 Z-6.945
X-10.199 Y-11.85 Z-6.979
G3 X-10.099 Y-12.133 Z-7.112 I0.295 J-0.054
G1 X-10.033 Y-12.185
X-9.918 Y-12.273
X-9.64 Y-12.469
X-9.511 Y-12.546
X-9.371 Y-12.601
X-9.225 Y-12.633
X-9.076 Y-12.647
X-8.926 Y-12.645
X-8.776 Y-12.629
X-8.62 Y-12.598
X-8.462 Y-12.554
X-8.292 Y-12.491
X-8.115 Y-12.409
X-7.941 Y-12.311
X-7.765 Y-12.192
X-7.591 Y-12.053
X-7.424 Y-11.895
X-7.267 Y-11.722
X-7.124 Y-11.536
X-6.997 Y-11.34
X-6.888 Y-11.137
X-6.798 Y-10.932
X-6.727 Y-10.728
X-6.676 Y-10.53
X-6.661 Y-10.443
X-6.655 Y-10.238
X-6.71 Y-10.04
X-6.82 Y-9.866
X-6.976 Y-9.731
X-7.127 Y-9.635
X-7.368 Y-9.478
X-7.554 Y-9.352
X-7.651 Y-9.281
X-7.843 Y-9.133
G3 X-8.141 Y-9.102 Z-6.979 I-0.175 J-0.243
G1 X-8.187 Y-9.127 Z-6.957
X-8.229 Y-9.158 Z-6.934
X-8.267 Y-9.194 Z-6.912
G3 X-8.238 Y-9.724 I0.28 J-0.251
X-8.119 Y-9.796 I0.251 J0.28
X-7.417 I0.35 J0.937
G1 X-7.345 Y-9.765 Z-6.945
X-7.275 Y-9.729 Z-6.979
G2 X-6.976 Y-9.731 Z-7.112 I0.148 J-0.261
G1 X-6.801 Y-9.842 F1800
X-6.55 Y-9.997
X-6.426 Y-10.082
X-6.33 Y-10.196
X-6.257 Y-10.327
X-6.203 Y-10.467
X-6.166 Y-10.613
X-6.145 Y-10.761
X-6.138 Y-10.911
X-6.143 Y-11.062
X-6.163 Y-11.23
X-6.198 Y-11.407
X-6.25 Y-11.589
X-6.322 Y-11.782
X-6.415 Y-11.979
X-6.526 Y-12.174
X-6.656 Y-12.365
X-6.807 Y-12.552
X-6.975 Y-12.729
X-7.159 Y-12.894
X-7.355 Y-13.043
X-7.559 Y-13.174
X-7.767 Y-13.285
X-7.78 Y-13.291
X-7.994 Y-13.346
X-8.215 Y-13.331
X-8.42 Y-13.248
X-8.501 Y-13.2
X-8.785 Y-13.024
X-9.068 Y-12.846
X-9.352 Y-12.661
X-9.64 Y-12.469
G2 X-9.756 Y-12.193 Z-6.979 I0.181 J0.239 F2000
G1 X-9.745 Y-12.142 Z-6.957
X-9.726 Y-12.093 Z-6.934
X-9.697 Y-12.049 Z-6.912
G2 X-9.426 Y-11.937 I0.233 J-0.18
X-8.56 Y-12.824 I-0.129 J-0.992
G1 X-8.555 Y-12.903 Z-6.945
X-8.556 Y-12.981 Z-6.979
G3 X-8.42 Y-13.248 Z-7.112 I0.3 J-0.016
G1 X-8.303 Y-13.319
X-7.935 Y-13.515
X-7.798 Y-13.578
X-7.653 Y-13.616
X-7.504 Y-13.631
X-7.354 Y-13.627
X-7.205 Y-13.608
X-7.059 Y-13.574
X-6.909 Y-13.525
X-6.758 Y-13.462
X-6.599 Y-13.381
X-6.433 Y-13.278
X-6.272 Y-13.16
X-6.113 Y-13.022
X-5.958 Y-12.863
X-5.812 Y-12.688
X-5.677 Y-12.497
X-5.558 Y-12.295
X-5.456 Y-12.086
X-5.372 Y-11.871
X-5.306 Y-11.655
X-5.261 Y-11.443
X-5.233 Y-11.239
X-5.229 Y-11.149
X-5.248 Y-10.947
X-5.324 Y-10.759
X-5.45 Y-10.6
X-5.617 Y-10.485
X-5.951 Y-10.319
X-6.234 Y-10.172
X-6.518 Y-10.017
X-6.55 Y-9.997
G3 X-6.85 Y-9.999 Z-6.979 I-0.148 J-0.261
G1 X-6.893 Y-10.029 Z-6.957
X-6.932 Y-10.064 Z-6.934
X-6.964 Y-10.105 Z-6.912
G3 X-6.874 Y-10.613 I0.299 J-0.209
X-6.762 Y-10.665 I0.209 J0.299
X-6.05 Y-10.595 I0.265 J0.964
G1 X-5.981 Y-10.558 Z-6.945
X-5.915 Y-10.514 Z-6.979
G2 X-5.617 Y-10.485 Z-7.112 I0.175 J-0.244
G1 X-5.384 Y-10.597 F1800
X-5.19 Y-10.681
X-5.055 Y-10.748
X-4.943 Y-10.847
X-4.851 Y-10.966
X-4.779 Y-11.097
X-4.722 Y-11.236
X-4.682 Y-11.38
X-4.654 Y-11.528
X-4.64 Y-11.678
X-4.637 Y-11.848
X-4.648 Y-12.022
X-4.676 Y-12.21
X-4.722 Y-12.411
X-4.786 Y-12.616
X-4.869 Y-12.821
X-4.973 Y-13.028
X-5.098 Y-13.232
X-5.241 Y-13.431
X-5.401 Y-13.618
X-5.575 Y-13.791
X-5.76 Y-13.948
X-5.951 Y-14.085
X-5.991 Y-14.109
X-6.202 Y-14.193
X-6.428 Y-14.206
X-6.647 Y-14.145
X-6.801 Y-14.074
X-7.085 Y-13.94
X-7.199 Y-13.886
X-7.368 Y-13.803
X-7.651 Y-13.661
X-7.767 Y-13.602
X-7.935 Y-13.515
G2 X-8.085 Y-13.256 Z-6.979 I0.15 J0.26 F2000
G1 Y-13.255
X-8.08 Y-13.203 Z-6.956
X-8.067 Y-13.153 Z-6.934
X-8.045 Y-13.105 Z-6.912
G2 X-7.769 Y-12.952 I0.264 J-0.15
X-6.832 Y-13.739 I-0.041 J-0.999
G1 X-6.818 Y-13.816 Z-6.945
X-6.811 Y-13.894 Z-6.979
G3 X-6.647 Y-14.145 Z-7.112 I0.3 J0.017
G1 X-6.595 Y-14.169
X-6.234 Y-14.303
X-6.079 Y-14.36
X-5.935 Y-14.404
X-5.786 Y-14.418
X-5.636 Y-14.41
X-5.488 Y-14.383
X-5.344 Y-14.342
X-5.204 Y-14.287
X-5.06 Y-14.216
X-4.916 Y-14.13
X-4.768 Y-14.026
X-4.617 Y-13.899
X-4.471 Y-13.755
X-4.333 Y-13.595
X-4.202 Y-13.415
X-4.081 Y-13.22
X-3.976 Y-13.012
X-3.886 Y-12.795
X-3.815 Y-12.573
X-3.763 Y-12.35
X-3.729 Y-12.128
X-3.714 Y-11.913
X-3.716 Y-11.708
X-3.722 Y-11.646
X-3.769 Y-11.45
X-3.87 Y-11.276
X-4.016 Y-11.137
X-4.196 Y-11.046
X-4.534 Y-10.93
X-4.817 Y-10.828
X-4.979 Y-10.768
X-5.101 Y-10.72
X-5.19 Y-10.681
X-5.244 Y-10.666 Z-7.088
X-5.3 Y-10.66 Z-7.064
X-5.366 Y-10.668 Z-7.036
X-5.43 Y-10.69 Z-7.007
X-5.486 Y-10.725 Z-6.979
X-5.525 Y-10.761 Z-6.957
X-5.558 Y-10.801 Z-6.934
X-5.585 Y-10.846 Z-6.912
G3 X-5.425 Y-11.342 I0.328 J-0.168
X-5.307 Y-11.379 I0.168 J0.328
X-4.61 Y-11.214 I0.134 J0.991
G1 X-4.546 Y-11.167 Z-6.945
X-4.487 Y-11.115 Z-6.979
G2 X-4.196 Y-11.046 Z-7.112 I0.206 J-0.218
G1 X-3.967 Y-11.119 F1800
X-3.741 Y-11.182
X-3.599 Y-11.229
X-3.475 Y-11.314
X-3.369 Y-11.42
X-3.281 Y-11.541
X-3.207 Y-11.672
X-3.148 Y-11.81
X-3.102 Y-11.953
X-3.069 Y-12.099
X-3.044 Y-12.265
X-3.032 Y-12.445
X-3.035 Y-12.632
X-3.055 Y-12.835
X-3.093 Y-13.05
X-3.149 Y-13.266
X-3.225 Y-13.483
X-3.322 Y-13.701
X-3.438 Y-13.917
X-3.573 Y-14.124
X-3.724 Y-14.318
X-3.887 Y-14.498
X-4.06 Y-14.66
X-4.084 Y-14.679
X-4.271 Y-14.786
X-4.482 Y-14.83
X-4.696 Y-14.809
X-4.817 Y-14.777
X-4.963 Y-14.736
X-5.101 Y-14.695
X-5.384 Y-14.603
X-5.668 Y-14.506
X-5.951 Y-14.406
X-6.079 Y-14.36
G2 X-6.263 Y-14.124 Z-6.979 I0.112 J0.278 F2000
G1 X-6.265 Y-14.071 Z-6.957
X-6.256 Y-14.02 Z-6.934
X-6.237 Y-13.971 Z-6.912
X-6.205 Y-13.925
X-6.164 Y-13.886
X-6.115 Y-13.858
X-6.061 Y-13.842
G2 X-4.951 Y-14.442 I0.186 J-0.982
G1 X-4.923 Y-14.516 Z-6.945
X-4.902 Y-14.591 Z-6.979
G3 X-4.696 Y-14.809 Z-7.112 I0.292 J0.07
G1 X-4.534 Y-14.851
X-4.165 Y-14.938
X-4.017 Y-14.965
X-3.867 Y-14.963
X-3.719 Y-14.938
X-3.576 Y-14.895
X-3.437 Y-14.837
X-3.305 Y-14.767
X-3.171 Y-14.68
X-3.041 Y-14.579
X-2.908 Y-14.458
X-2.774 Y-14.316
X-2.649 Y-14.158
X-2.531 Y-13.983
X-2.422 Y-13.789
X-2.326 Y-13.581
X-2.246 Y-13.362
X-2.183 Y-13.136
X-2.139 Y-12.908
X-2.113 Y-12.679
X-2.107 Y-12.454
X-2.117 Y-12.238
X-2.144 Y-12.035
X-2.159 Y-11.963
X-2.229 Y-11.775
X-2.349 Y-11.615
X-2.509 Y-11.495
X-2.697 Y-11.425
X-2.834 Y-11.396
X-3.117 Y-11.332
X-3.401 Y-11.266
X-3.684 Y-11.198
X-3.741 Y-11.182
G3 X-4.029 Y-11.267 Z-6.979 I-0.07 J-0.292
G1 X-4.062 Y-11.307 Z-6.957
X-4.089 Y-11.352 Z-6.934
X-4.11 Y-11.4 Z-6.912
G3 X-3.883 Y-11.863 I0.345 J-0.118
X-3.777 Y-11.882 I0.118 J0.345
X-3.09 Y-11.639 I0.033 J0.999
G1 X-3.032 Y-11.585 Z-6.945
X-2.979 Y-11.527 Z-6.979
G2 X-2.697 Y-11.425 Z-7.112 I0.229 J-0.193
G1 X-2.55 Y-11.457 F1800
X-2.267 Y-11.499
X-2.22 Y-11.505
X-2.072 Y-11.53
X-1.941 Y-11.603
X-1.824 Y-11.697
X-1.723 Y-11.808
X-1.635 Y-11.93
X-1.561 Y-12.06
X-1.499 Y-12.197
X-1.448 Y-12.339
X-1.404 Y-12.503
X-1.371 Y-12.682
X-1.352 Y-12.87
X-1.348 Y-13.076
X-1.361 Y-13.295
X-1.392 Y-13.518
X-1.442 Y-13.744
X-1.513 Y-13.973
X-1.604 Y-14.2
X-1.714 Y-14.421
X-1.84 Y-14.632
X-1.981 Y-14.828
X-2.133 Y-15.008
X-2.144 Y-15.019
X-2.315 Y-15.145
X-2.516 Y-15.215
X-2.728 Y-15.22
X-2.834 Y-15.207
X-3.117 Y-15.167
X-3.401 Y-15.11
X-3.684 Y-15.049
X-4.076 Y-14.959
X-4.165 Y-14.938
G2 X-4.377 Y-14.726 Z-6.979 I0.078 J0.29 F2000
G1 X-4.384 Y-14.674 Z-6.957
X-4.381 Y-14.622 Z-6.934
X-4.365 Y-14.572 Z-6.912
X-4.342 Y-14.53
X-4.31 Y-14.494
X-4.272 Y-14.465
X-4.228 Y-14.444
G2 X-3.028 Y-14.889 I0.333 J-0.943
G1 X-2.992 Y-14.959 Z-6.945
X-2.961 Y-15.031 Z-6.979
G3 X-2.728 Y-15.22 Z-7.112 I0.28 J0.107
G1 X-2.55 Y-15.243
X-2.267 Y-15.276
X-2.19 Y-15.284
X-2.04 Y-15.292
X-1.892 Y-15.271
X-1.748 Y-15.229
X-1.611 Y-15.168
X-1.481 Y-15.093
X-1.358 Y-15.007
X-1.236 Y-14.905
X-1.118 Y-14.788
X-1.002 Y-14.652
X-0.887 Y-14.494
X-0.781 Y-14.321
X-0.686 Y-14.132
X-0.601 Y-13.927
X-0.532 Y-13.709
X-0.479 Y-13.481
X-0.445 Y-13.249
X-0.429 Y-13.015
X-0.432 Y-12.785
X-0.453 Y-12.56
X-0.491 Y-12.345
X-0.543 Y-12.145
X-0.566 Y-12.08
X-0.659 Y-11.901
X-0.8 Y-11.755
X-0.975 Y-11.656
X-1.172 Y-11.612
X-1.417 Y-11.593
X-1.7 Y-11.565
X-1.984 Y-11.534
X-2.22 Y-11.505
G3 X-2.492 Y-11.631 Z-6.979 I-0.026 J-0.299
G1 X-2.519 Y-11.676 Z-6.957
X-2.539 Y-11.724 Z-6.934
X-2.552 Y-11.775 Z-6.912
G3 X-2.259 Y-12.2 I0.359 J-0.066
X-2.142 Y-12.202 I0.066 J0.359
X-1.533 Y-11.875 I-0.139 J0.99
G1 X-1.483 Y-11.815 Z-6.945
X-1.438 Y-11.75 Z-6.979
G2 X-1.172 Y-11.612 Z-7.112 I0.253 J-0.161
G1 X-1.134 Y-11.615 F1800
X-0.85 Y-11.624
X-0.694 Y-11.627
X-0.545 Y-11.637
X-0.404 Y-11.69
X-0.276 Y-11.768
X-0.161 Y-11.864
X-0.058 Y-11.973
X0.033 Y-12.092
X0.112 Y-12.22
X0.181 Y-12.354
X0.246 Y-12.511
X0.301 Y-12.682
X0.344 Y-12.866
X0.375 Y-13.07
X0.391 Y-13.287
X0.389 Y-13.511
X0.368 Y-13.741
X0.327 Y-13.977
X0.267 Y-14.215
X0.186 Y-14.448
X0.088 Y-14.674
X-0.026 Y-14.888
X-0.154 Y-15.086
X-0.166 Y-15.101
X-0.323 Y-15.252
X-0.519 Y-15.347
X-0.734 Y-15.377
X-1.134 Y-15.369
X-1.417 Y-15.354
X-1.7 Y-15.332
X-2.012 Y-15.303
X-2.19 Y-15.284
G2 X-2.426 Y-15.099 Z-6.979 I0.042 J0.297 F2000
G1 X-2.441 Y-15.049 Z-6.957
X-2.445 Y-14.997 Z-6.934
X-2.44 Y-14.945 Z-6.912
X-2.42 Y-14.886
X-2.387 Y-14.834
X-2.343 Y-14.791
X-2.29 Y-14.759
G2 X-1.068 Y-15.08 I0.414 J-0.91
G1 X-1.024 Y-15.145 Z-6.945
X-0.986 Y-15.214 Z-6.979
G3 X-0.734 Y-15.377 Z-7.112 I0.267 J0.137
G1 X-0.198 Y-15.385
X-0.048 Y-15.38
X0.097 Y-15.343
X0.235 Y-15.283
X0.364 Y-15.207
X0.485 Y-15.118
X0.596 Y-15.018
X0.705 Y-14.901
X0.807 Y-14.773
X0.908 Y-14.623
X1.004 Y-14.453
X1.087 Y-14.271
X1.16 Y-14.072
X1.22 Y-13.856
X1.263 Y-13.63
X1.289 Y-13.398
X1.296 Y-13.162
X1.284 Y-12.928
X1.253 Y-12.699
X1.206 Y-12.478
X1.143 Y-12.27
X1.068 Y-12.078
X1.046 Y-12.033
X0.934 Y-11.868
X0.781 Y-11.741
X0.597 Y-11.663
X0.399 Y-11.639
X0.283 Y-11.642
X-0.694 Y-11.627
G3 X-0.951 Y-11.781 Z-6.979 I0.005 J-0.3
G1 X-0.974 Y-11.828 Z-6.957
X-0.989 Y-11.878 Z-6.934
X-0.997 Y-11.93 Z-6.912
G3 X-0.655 Y-12.343 I0.378 J-0.035
X-0.543 Y-12.337 I0.035 J0.378
X0.068 Y-11.939 I-0.202 J0.979
G1 X0.111 Y-11.873 Z-6.945
X0.149 Y-11.805 Z-6.979
G2 X0.399 Y-11.639 Z-7.112 I0.268 J-0.134
G1 X0.567 Y-11.635 F1800
X0.893 Y-11.62
X1.043 Y-11.621
X1.188 Y-11.661
X1.323 Y-11.727
X1.446 Y-11.812
X1.559 Y-11.911
X1.661 Y-12.021
X1.752 Y-12.14
X1.835 Y-12.272
X1.913 Y-12.418
X1.986 Y-12.588
X2.047 Y-12.768
X2.097 Y-12.965
X2.133 Y-13.18
X2.152 Y-13.408
X2.153 Y-13.642
X2.135 Y-13.88
X2.098 Y-14.12
X2.04 Y-14.358
X1.965 Y-14.59
X1.872 Y-14.811
X1.766 Y-15.017
X1.757 Y-15.031
X1.609 Y-15.201
X1.415 Y-15.314
X1.195 Y-15.36
X0.85 Y-15.376
X0.567 Y-15.387
X0.283 Y-15.393
X-0.198 Y-15.385
G2 X-0.449 Y-15.223 Z-6.979 I0.015 J0.3 F2000
G1 X-0.469 Y-15.174 Z-6.957
X-0.481 Y-15.123 Z-6.934
X-0.484 Y-15.071 Z-6.912
G2 X-0.283 Y-14.789 I0.311 J-0.01
X0.843 Y-15.085 I0.356 J-0.934
G1 X0.891 Y-15.148 Z-6.945
X0.933 Y-15.213 Z-6.979
G3 X1.195 Y-15.36 Z-7.112 I0.258 J0.153
G1 X1.7 Y-15.336
X1.85 Y-15.321
X1.993 Y-15.278
X2.127 Y-15.211
X2.252 Y-15.128
X2.367 Y-15.031
X2.471 Y-14.923
X2.567 Y-14.806
X2.658 Y-14.673
X2.748 Y-14.517
X2.828 Y-14.35
X2.898 Y-14.164
X2.958 Y-13.96
X3.002 Y-13.742
X3.03 Y-13.517
X3.039 Y-13.285
X3.03 Y-13.05
X3.002 Y-12.816
X2.956 Y-12.587
X2.893 Y-12.368
X2.816 Y-12.163
X2.725 Y-11.97
X2.685 Y-11.901
X2.558 Y-11.74
X2.39 Y-11.623
X2.194 Y-11.56
X1.989 Y-11.556
X1.7 Y-11.581
X1.417 Y-11.596
X0.893 Y-11.62
G3 X0.647 Y-11.79 Z-6.979 I0.024 J-0.299
G1 X0.62 Y-11.864 Z-6.945
X0.608 Y-11.942 Z-6.912
G3 X0.987 Y-12.361 I0.399 J-0.02
X1.131 Y-12.342 I0.02 J0.399
X1.69 Y-11.887 I-0.31 J0.951
G1 X1.726 Y-11.818 Z-6.945
X1.757 Y-11.745 Z-6.979
G2 X1.989 Y-11.556 Z-7.112 I0.281 J-0.106
G1 X2.267 Y-11.52 F1800
X2.493 Y-11.489
X2.643 Y-11.477
X2.79 Y-11.505
X2.929 Y-11.56
X3.06 Y-11.634
X3.181 Y-11.723
X3.291 Y-11.824
X3.392 Y-11.935
X3.484 Y-12.056
X3.577 Y-12.2
X3.663 Y-12.359
X3.74 Y-12.533
X3.807 Y-12.728
X3.862 Y-12.941
X3.9 Y-13.162
X3.922 Y-13.394
X3.925 Y-13.633
X3.908 Y-13.876
X3.871 Y-14.118
X3.816 Y-14.356
X3.743 Y-14.583
X3.655 Y-14.797
X3.647 Y-14.813
X3.516 Y-14.993
X3.335 Y-15.122
X3.123 Y-15.188
X2.55 Y-15.265
X2.267 Y-15.298
X1.984 Y-15.322
X1.7 Y-15.336
G2 X1.439 Y-15.19 Z-6.979 I-0.004 J0.3 F2000
G1 X1.416 Y-15.143 Z-6.957
X1.402 Y-15.093 Z-6.934
X1.398 Y-15.041 Z-6.912
G2 X1.542 Y-14.792 I0.289 J-0.002
X2.746 Y-14.948 I0.499 J-0.866
G1 X2.799 Y-15.006 Z-6.945
X2.848 Y-15.067 Z-6.979
G3 X3.123 Y-15.188 Z-7.112 I0.242 J0.177
G1 X3.401 Y-15.148
X3.627 Y-15.114
X3.774 Y-15.084
X3.912 Y-15.027
X4.04 Y-14.948
X4.156 Y-14.853
X4.261 Y-14.746
X4.356 Y-14.63
X4.441 Y-14.502
X4.52 Y-14.362
X4.595 Y-14.199
X4.659 Y-14.023
X4.712 Y-13.833
X4.752 Y-13.625
X4.776 Y-13.403
X4.783 Y-13.175
X4.771 Y-12.944
X4.74 Y-12.711
X4.69 Y-12.481
X4.623 Y-12.257
X4.54 Y-12.045
X4.445 Y-11.849
X4.337 Y-11.667
X4.278 Y-11.584
X4.134 Y-11.433
X3.952 Y-11.331
X3.748 Y-11.288
X3.54 Y-11.307
X3.401 Y-11.341
X3.117 Y-11.397
X2.834 Y-11.442
X2.493 Y-11.489
G3 X2.262 Y-11.681 Z-6.979 I0.051 J-0.296
G1 X2.243 Y-11.757 Z-6.945
X2.238 Y-11.835 Z-6.912
G3 X2.648 Y-12.21 I0.393 J0.017
X2.806 Y-12.17 I-0.017 J0.393
X3.28 Y-11.67 I-0.444 J0.896
G1 X3.308 Y-11.597 Z-6.945
X3.331 Y-11.521 Z-6.979
G2 X3.54 Y-11.307 Z-7.112 I0.291 J-0.074
G1 X3.684 Y-11.271 F1800
X3.967 Y-11.199
X4.014 Y-11.186
X4.161 Y-11.154
X4.311 Y-11.161
X4.456 Y-11.198
X4.595 Y-11.255
X4.726 Y-11.329
X4.847 Y-11.416
X4.961 Y-11.514
X5.068 Y-11.625
X5.176 Y-11.756
X5.276 Y-11.9
X5.373 Y-12.066
X5.463 Y-12.253
X5.54 Y-12.451
X5.603 Y-12.665
X5.651 Y-12.895
X5.682 Y-13.134
X5.693 Y-13.378
X5.685 Y-13.624
X5.657 Y-13.867
X5.61 Y-14.104
X5.546 Y-14.331
X5.537 Y-14.354
X5.428 Y-14.547
X5.265 Y-14.697
X5.062 Y-14.787
X4.817 Y-14.853
X4.534 Y-14.924
X4.251 Y-14.993
X4.134 Y-15.019
X3.967 Y-15.055
X3.684 Y-15.105
X3.627 Y-15.114
G2 X3.351 Y-14.995 Z-6.979 I-0.035 J0.298 F2000
G1 X3.324 Y-14.951 Z-6.957
X3.306 Y-14.902 Z-6.934
X3.298 Y-14.85 Z-6.912
X3.301 Y-14.787
X3.318 Y-14.727
X3.349 Y-14.672
X3.391 Y-14.626
G2 X4.66 Y-14.594 I0.654 J-0.757
G1 X4.72 Y-14.644 Z-6.945
X4.776 Y-14.7 Z-6.979
G3 X5.062 Y-14.787 Z-7.112 I0.219 J0.205
G1 X5.384 Y-14.698
X5.579 Y-14.641
X5.72 Y-14.592
X5.85 Y-14.516
X5.965 Y-14.42
X6.068 Y-14.311
X6.158 Y-14.191
X6.236 Y-14.063
X6.307 Y-13.922
X6.367 Y-13.771
X6.422 Y-13.598
X6.464 Y-13.41
X6.492 Y-13.213
X6.505 Y-13.001
X6.501 Y-12.778
X6.479 Y-12.549
X6.437 Y-12.32
X6.377 Y-12.093
X6.299 Y-11.872
X6.204 Y-11.661
X6.096 Y-11.462
X5.977 Y-11.281
X5.85 Y-11.118
X5.783 Y-11.045
X5.62 Y-10.913
X5.427 Y-10.836
X5.219 Y-10.819
X5.015 Y-10.864
X4.817 Y-10.94
X4.493 Y-11.052
X4.251 Y-11.121
X4.014 Y-11.186
G3 X3.811 Y-11.406 Z-6.979 I0.089 J-0.286
G1 X3.803 Y-11.458 Z-6.957
X3.802 Y-11.51 Z-6.934
X3.808 Y-11.562 Z-6.912
G3 X4.258 Y-11.87 I0.379 J0.071
X4.404 Y-11.81 I-0.071 J0.379
X4.803 Y-11.258 I-0.562 J0.827
G1 X4.822 Y-11.181 Z-6.945
X4.835 Y-11.104 Z-6.979
G2 X5.015 Y-10.864 Z-7.112 I0.298 J-0.036
G1 X5.259 Y-10.768 F1800
X5.47 Y-10.684
X5.612 Y-10.635
X5.761 Y-10.623
X5.91 Y-10.641
X6.055 Y-10.68
X6.194 Y-10.736
X6.326 Y-10.808
X6.451 Y-10.891
X6.569 Y-10.986
X6.693 Y-11.103
X6.81 Y-11.233
X6.927 Y-11.385
X7.039 Y-11.558
X7.14 Y-11.746
X7.23 Y-11.95
X7.306 Y-12.171
X7.366 Y-12.404
X7.408 Y-12.646
X7.431 Y-12.892
X7.434 Y-13.138
X7.417 Y-13.381
X7.382 Y-13.615
X7.377 Y-13.638
X7.292 Y-13.844
X7.148 Y-14.012
X6.957 Y-14.128
X6.518 Y-14.303
X6.234 Y-14.414
X6.132 Y-14.452
X5.951 Y-14.519
X5.668 Y-14.615
X5.579 Y-14.641
G2 X5.29 Y-14.56 Z-6.979 I-0.074 J0.291 F2000
G1 X5.257 Y-14.519 Z-6.957
X5.232 Y-14.474 Z-6.934
X5.216 Y-14.424 Z-6.912
G2 X5.284 Y-14.165 I0.28 J0.064
X6.534 Y-13.985 I0.736 J-0.677
G1 X6.6 Y-14.028 Z-6.945
X6.662 Y-14.076 Z-6.979
G3 X6.957 Y-14.128 Z-7.112 I0.193 J0.23
G1 X7.085 Y-14.076
X7.368 Y-13.958
X7.457 Y-13.918
X7.59 Y-13.85
X7.708 Y-13.758
X7.811 Y-13.648
X7.898 Y-13.526
X7.973 Y-13.396
X8.034 Y-13.259
X8.087 Y-13.11
X8.128 Y-12.953
X8.16 Y-12.773
X8.178 Y-12.581
X8.182 Y-12.382
X8.168 Y-12.17
X8.136 Y-11.949
X8.084 Y-11.724
X8.014 Y-11.502
X7.926 Y-11.284
X7.82 Y-11.075
X7.7 Y-10.878
X7.568 Y-10.695
X7.427 Y-10.531
X7.281 Y-10.386
X7.211 Y-10.325
X7.035 Y-10.217
X6.835 Y-10.164
X6.629 Y-10.172
X6.434 Y-10.239
X6.234 Y-10.344
X5.945 Y-10.485
X5.668 Y-10.604
X5.47 Y-10.684
G3 X5.294 Y-10.926 Z-6.979 I0.122 J-0.274
G1 X5.292 Y-10.979 Z-6.957
X5.297 Y-11.031 Z-6.934
X5.309 Y-11.082 Z-6.912
G3 X5.789 Y-11.332 I0.365 J0.115
X5.918 Y-11.262 I-0.115 J0.365
X6.268 Y-10.654 I-0.636 J0.772
G1 X6.278 Y-10.576 Z-6.945
X6.282 Y-10.498 Z-6.979
G2 X6.434 Y-10.239 Z-7.112 I0.3 J-0.002
G1 X6.518 Y-10.195 F1800
X6.801 Y-10.042
X6.868 Y-10.005
X7.002 Y-9.938
X7.15 Y-9.911
X7.3
X7.448 Y-9.934
X7.592 Y-9.974
X7.732 Y-10.03
X7.865 Y-10.098
X7.994 Y-10.178
X8.131 Y-10.28
X8.264 Y-10.396
X8.397 Y-10.533
X8.529 Y-10.693
X8.653 Y-10.869
X8.766 Y-11.061
X8.868 Y-11.271
X8.955 Y-11.495
X9.025 Y-11.73
X9.076 Y-11.973
X9.108 Y-12.216
X9.12 Y-12.459
X9.113 Y-12.695
X9.111 Y-12.712
X9.052 Y-12.925
X8.93 Y-13.109
X8.756 Y-13.246
X8.625 Y-13.319
X8.501 Y-13.386
X8.218 Y-13.538
X8.096 Y-13.602
X7.935 Y-13.686
X7.651 Y-13.827
X7.529 Y-13.886
X7.457 Y-13.918
G2 X7.16 Y-13.878 Z-6.979 I-0.113 J0.278 F2000
G1 X7.121 Y-13.842 Z-6.957
X7.09 Y-13.8 Z-6.934
X7.068 Y-13.753 Z-6.912
G2 X7.103 Y-13.487 I0.266 J0.1
X8.318 Y-13.157 I0.812 J-0.584
G1 X8.389 Y-13.191 Z-6.945
X8.457 Y-13.231 Z-6.979
G3 X8.756 Y-13.246 Z-7.112 I0.163 J0.252
G1 X9.126 Y-13.036
X9.25 Y-12.956
X9.372 Y-12.869
X9.474 Y-12.759
X9.559 Y-12.635
X9.628 Y-12.502
X9.683 Y-12.363
X9.725 Y-12.219
X9.757 Y-12.061
X9.776 Y-11.895
X9.783 Y-11.714
X9.774 Y-11.517
X9.749 Y-11.314
X9.706 Y-11.107
X9.644 Y-10.892
X9.561 Y-10.677
X9.461 Y-10.466
X9.343 Y-10.263
X9.21 Y-10.071
X9.064 Y-9.893
X8.907 Y-9.73
X8.745 Y-9.586
X8.58 Y-9.463
X8.52 Y-9.425
X8.331 Y-9.342
X8.127 Y-9.317
X7.924 Y-9.353
X7.741 Y-9.446
X7.651 Y-9.509
X7.368 Y-9.704
X7.085 Y-9.881
X7.022 Y-9.918
X6.868 Y-10.005
G3 X6.724 Y-10.268 Z-6.979 I0.156 J-0.256
G1 X6.729 Y-10.32 Z-6.957
X6.741 Y-10.371 Z-6.934
X6.76 Y-10.42 Z-6.912
G3 X7.262 Y-10.601 I0.342 J0.16
X7.386 Y-10.508 I-0.16 J0.342
X7.633 Y-9.879 I-0.753 J0.658
G1 X7.632 Y-9.801 Z-6.945
X7.625 Y-9.722 Z-6.979
G2 X7.741 Y-9.446 Z-7.112 I0.298 J0.038
G1 X7.935 Y-9.308 F1800
X8.161 Y-9.144
X8.286 Y-9.062
X8.43 Y-9.02
X8.58 Y-9.005
X8.73 Y-9.011
X8.878 Y-9.035
X9.023 Y-9.074
X9.163 Y-9.126
X9.301 Y-9.191
X9.448 Y-9.275
X9.601 Y-9.379
X9.748 Y-9.498
X9.897 Y-9.64
X10.044 Y-9.803
X10.182 Y-9.984
X10.307 Y-10.18
X10.42 Y-10.392
X10.518 Y-10.617
X10.598 Y-10.852
X10.659 Y-11.091
X10.7 Y-11.331
X10.715 Y-11.505
X10.707 Y-11.685
X10.654 Y-11.858
X10.558 Y-12.011
X10.427 Y-12.134
X10.202 Y-12.297
X9.918 Y-12.499
X9.635 Y-12.697
X9.352 Y-12.891
X9.25 Y-12.956
G2 X8.951 Y-12.96 Z-6.979 I-0.153 J0.258 F2000
G1 X8.907 Y-12.93 Z-6.957
X8.869 Y-12.894 Z-6.934
X8.838 Y-12.852 Z-6.912
G2 Y-12.522 I0.265 J0.165
X9.982 Y-12.096 I0.848 J-0.53
G1 X10.056 Y-12.122 Z-6.945
X10.128 Y-12.154 Z-6.979
G3 X10.427 Y-12.134 Z-7.112 I0.132 J0.269
G1 X10.485 Y-12.092
X10.732 Y-11.902
X10.768 Y-11.872
X10.887 Y-11.772
X10.997 Y-11.669
X11.084 Y-11.547
X11.152 Y-11.413
X11.203 Y-11.273
X11.24 Y-11.127
X11.263 Y-10.979
X11.274 Y-10.821
X11.271 Y-10.65
X11.255 Y-10.473
X11.221 Y-10.281
X11.169 Y-10.08
X11.1 Y-9.878
X11.011 Y-9.676
X10.902 Y-9.474
X10.775 Y-9.278
X10.631 Y-9.091
X10.474 Y-8.918
X10.307 Y-8.76
X10.132 Y-8.62
X9.951 Y-8.498
X9.769 Y-8.395
X9.713 Y-8.369
X9.516 Y-8.311
X9.311 Y-8.312
X9.115 Y-8.373
X8.945 Y-8.489
X8.785 Y-8.632
X8.612 Y-8.785
X8.501 Y-8.88
X8.265 Y-9.068
X8.161 Y-9.144
G3 X8.048 Y-9.422 Z-6.979 I0.184 J-0.237
G1 X8.058 Y-9.473 Z-6.957
X8.076 Y-9.522 Z-6.934
X8.101 Y-9.569 Z-6.912
G3 X8.617 Y-9.69 I0.319 J0.198
X8.734 Y-9.576 I-0.198 J0.319
X8.892 Y-8.932 I-0.836 J0.548
G1 X8.882 Y-8.854 Z-6.945
X8.865 Y-8.778 Z-6.979
G2 X8.945 Y-8.489 Z-7.112 I0.29 J0.075
G1 X9.238 Y-8.218 F1800
X9.3 Y-8.16
X9.415 Y-8.063
X9.549 Y-7.996
X9.694 Y-7.957
X9.843 Y-7.939
X9.993 Y-7.94
X10.142 Y-7.958
X10.289 Y-7.989
X10.432 Y-8.033
X10.588 Y-8.094
X10.749 Y-8.173
X10.91 Y-8.269
X11.077 Y-8.387
X11.243 Y-8.526
X11.401 Y-8.682
X11.552 Y-8.856
X11.693 Y-9.049
X11.822 Y-9.258
X11.934 Y-9.477
X12.028 Y-9.705
X12.103 Y-9.936
X12.157 Y-10.167
X12.162 Y-10.203
X12.159 Y-10.43
X12.084 Y-10.645
X11.943 Y-10.824
X11.619 Y-11.125
X11.388 Y-11.335
X11.052 Y-11.632
X10.887 Y-11.772
G2 X10.59 Y-11.815 Z-6.979 I-0.186 J0.236 F2000
G1 X10.544 Y-11.792 Z-6.957
X10.501 Y-11.761 Z-6.934
X10.464 Y-11.724 Z-6.912
G2 X10.423 Y-11.374 I0.244 J0.207
X11.497 Y-10.838 I0.894 J-0.448
G1 X11.574 Y-10.856 Z-6.945
X11.649 Y-10.879 Z-6.979
G3 X11.943 Y-10.824 Z-7.112 I0.1 J0.283
G1 X12.004 Y-10.768
X12.185 Y-10.588
X12.358 Y-10.397
X12.453 Y-10.281
X12.524 Y-10.149
X12.575 Y-10.008
X12.608 Y-9.862
X12.626 Y-9.713
X12.63 Y-9.563
X12.62 Y-9.402
X12.597 Y-9.238
X12.557 Y-9.061
X12.499 Y-8.873
X12.423 Y-8.685
X12.329 Y-8.495
X12.214 Y-8.304
X12.08 Y-8.117
X11.93 Y-7.939
X11.764 Y-7.773
X11.587 Y-7.621
X11.401 Y-7.487
X11.209 Y-7.37
X11.017 Y-7.273
X10.828 Y-7.196
X10.757 Y-7.174
X10.556 Y-7.141
X10.354 Y-7.168
X10.169 Y-7.252
X10.015 Y-7.385
X9.918 Y-7.498
X9.784 Y-7.651
X9.635 Y-7.819
X9.529 Y-7.935
X9.352 Y-8.112
X9.3 Y-8.16
G3 X9.223 Y-8.449 Z-6.979 I0.212 J-0.212
G1 X9.24 Y-8.499 Z-6.957
X9.264 Y-8.545 Z-6.934
X9.294 Y-8.588 Z-6.912
G3 X9.82 Y-8.642 I0.29 J0.236
X9.91 Y-8.536 I-0.236 J0.29
X10.015 Y-7.832 I-0.872 J0.49
G1 X9.996 Y-7.756 Z-6.945
X9.97 Y-7.682 Z-6.979
G2 X10.015 Y-7.385 Z-7.112 I0.279 J0.109
G1 X10.202 Y-7.164 F1800
X10.268 Y-7.085
X10.334 Y-6.999
X10.431 Y-6.885
X10.559 Y-6.806
X10.699 Y-6.753
X10.846 Y-6.719
X10.995 Y-6.704
X11.145
X11.294 Y-6.718
X11.444 Y-6.745
X11.607 Y-6.788
X11.78 Y-6.849
X11.952 Y-6.926
X12.133 Y-7.024
X12.317 Y-7.144
X12.495 Y-7.282
X12.667 Y-7.439
X12.83 Y-7.614
X12.982 Y-7.806
X13.12 Y-8.011
X13.24 Y-8.226
X13.341 Y-8.447
X13.422 Y-8.669
X13.425 Y-8.681
X13.45 Y-8.901
X13.404 Y-9.117
X13.293 Y-9.308
X13.023 Y-9.635
X12.752 Y-9.953
X12.469 Y-10.275
X12.358 Y-10.397
G2 X12.07 Y-10.479 Z-6.979 I-0.215 J0.209 F2000
G1 X12.021 Y-10.462 Z-6.957
X11.975 Y-10.436 Z-6.934
X11.934 Y-10.403 Z-6.912
G2 X11.857 Y-10.108 I0.208 J0.212
X12.854 Y-9.387 I0.96 J-0.278
G1 X12.932 Y-9.393 Z-6.945
X13.01 Y-9.405 Z-6.979
G3 X13.293 Y-9.308 Z-7.112 I0.058 J0.294
G1 X13.319 Y-9.277
X13.479 Y-9.068
X13.602 Y-8.894
X13.644 Y-8.834
X13.723 Y-8.707
X13.775 Y-8.566
X13.807 Y-8.419
X13.82 Y-8.27
X13.817 Y-8.12
X13.801 Y-7.971
X13.771 Y-7.815
X13.725 Y-7.65
X13.663 Y-7.483
X13.581 Y-7.305
X13.479 Y-7.124
X13.36 Y-6.947
X13.221 Y-6.774
X13.064 Y-6.607
X12.891 Y-6.45
X12.704 Y-6.307
X12.508 Y-6.179
X12.306 Y-6.07
X12.101 Y-5.98
X11.895 Y-5.909
X11.694 Y-5.856
X11.641 Y-5.847
X11.44 Y-5.841
X11.245 Y-5.893
X11.073 Y-5.998
X10.938 Y-6.147
X10.88 Y-6.234
X10.686 Y-6.518
X10.485 Y-6.803
X10.334 Y-6.999
G3 X10.304 Y-7.297 Z-6.979 I0.244 J-0.175
G1 X10.329 Y-7.343 Z-6.957
X10.36 Y-7.385 Z-6.934
X10.397 Y-7.422 Z-6.912
G3 X10.915 Y-7.387 I0.241 J0.276
X10.981 Y-7.277 I-0.276 J0.241
X10.992 Y-6.591 I-0.934 J0.359
G1 X10.963 Y-6.518 Z-6.945
X10.929 Y-6.447 Z-6.979
G2 X10.938 Y-6.147 Z-7.112 I0.264 J0.142
G1 X11.07 Y-5.951 F1800
X11.213 Y-5.725
X11.3 Y-5.603
X11.418 Y-5.509
X11.55 Y-5.439
X11.692 Y-5.389
X11.838 Y-5.356
X11.987 Y-5.338
X12.137 Y-5.334
X12.292 Y-5.343
X12.457 Y-5.366
X12.638 Y-5.406
X12.82 Y-5.462
X13.009 Y-5.538
X13.204 Y-5.634
X13.4 Y-5.752
X13.591 Y-5.888
X13.774 Y-6.042
X13.948 Y-6.214
X14.108 Y-6.401
X14.253 Y-6.6
X14.379 Y-6.806
X14.486 Y-7.016
X14.536 Y-7.228
X14.519 Y-7.444
X14.436 Y-7.645
X14.254 Y-7.935
X14.066 Y-8.218
X13.873 Y-8.501
X13.644 Y-8.834
G2 X13.369 Y-8.953 Z-6.979 I-0.241 J0.179 F2000
G1 X13.318 Y-8.942 Z-6.957
X13.269 Y-8.922 Z-6.934
X13.226 Y-8.893 Z-6.912
G2 X13.122 Y-8.631 I0.176 J0.221
X14.011 Y-7.783 I0.989 J-0.148
G1 X14.09 Y-7.779 Z-6.945
X14.168 Y-7.78 Z-6.979
G3 X14.436 Y-7.645 Z-7.112 I0.017 J0.3
G1 X14.601 Y-7.368
X14.708 Y-7.174
X14.775 Y-7.04
X14.815 Y-6.895
X14.832 Y-6.746
X14.831 Y-6.596
X14.813 Y-6.447
X14.782 Y-6.301
X14.736 Y-6.15
X14.674 Y-5.996
X14.596 Y-5.837
X14.495 Y-5.669
X14.378 Y-5.504
X14.242 Y-5.343
X14.086 Y-5.186
X13.913 Y-5.037
X13.724 Y-4.899
X13.524 Y-4.776
X13.315 Y-4.67
X13.101 Y-4.583
X12.886 Y-4.514
X12.673 Y-4.465
X12.468 Y-4.434
X12.403 Y-4.43
X12.206 Y-4.444
X12.021 Y-4.513
X11.863 Y-4.631
X11.744 Y-4.789
X11.335 Y-5.523
X11.25 Y-5.668
X11.213 Y-5.725
G3 X11.211 Y-6.025 Z-6.979 I0.259 J-0.152
G1 X11.24 Y-6.068 Z-6.957
X11.275 Y-6.107 Z-6.934
X11.315 Y-6.14 Z-6.912
G3 X11.816 Y-6.056 I0.208 J0.293
X11.861 Y-5.969 I-0.293 J0.208
X11.834 Y-5.226 I-0.941 J0.337
G1 X11.799 Y-5.156 Z-6.945
X11.759 Y-5.088 Z-6.979
G2 X11.744 Y-4.789 Z-7.112 I0.252 J0.163
G1 X11.997 Y-4.33 F1800
X12.076 Y-4.202
X12.187 Y-4.102
X12.314 Y-4.022
X12.451 Y-3.96
X12.594 Y-3.915
X12.741 Y-3.885
X12.89 Y-3.868
X13.052 Y-3.863
X13.218 Y-3.871
X13.403 Y-3.895
X13.596 Y-3.937
X13.791 Y-3.995
X13.994 Y-4.074
X14.2 Y-4.174
X14.404 Y-4.294
X14.602 Y-4.433
X14.79 Y-4.589
X14.964 Y-4.759
X15.124 Y-4.942
X15.265 Y-5.133
X15.351 Y-5.27
X15.424 Y-5.432
X15.456 Y-5.606
X15.442 Y-5.783
X15.384 Y-5.95
X15.303 Y-6.105
X14.708 Y-7.174
G2 X14.446 Y-7.319 Z-6.979 I-0.257 J0.155 F2000
G1 X14.394 Y-7.313 Z-6.957
X14.344 Y-7.298 Z-6.934
X14.297 Y-7.274 Z-6.912
G2 X14.166 Y-7.002 I0.154 J0.242
X14.973 Y-6.125 I0.994 J-0.105
G1 X15.051 Y-6.113 Z-6.945
X15.129 Y-6.108 Z-6.979
G3 X15.384 Y-5.95 Z-7.112 I-0.009 J0.3
G1 X15.524 Y-5.668
X15.608 Y-5.491
X15.666 Y-5.353
X15.699 Y-5.207
X15.707 Y-5.057
X15.695 Y-4.907
X15.667 Y-4.76
X15.625 Y-4.616
X15.568 Y-4.471
X15.498 Y-4.326
X15.408 Y-4.174
X15.297 Y-4.017
X15.17 Y-3.865
X15.023 Y-3.715
X14.857 Y-3.57
X14.672 Y-3.435
X14.473 Y-3.311
X14.264 Y-3.204
X14.046 Y-3.114
X13.825 Y-3.042
X13.603 Y-2.989
X13.384 Y-2.955
X13.175 Y-2.94
X13.108 Y-2.941
X12.916 Y-2.969
X12.739 Y-3.05
X12.591 Y-3.175
X12.483 Y-3.337
X12.18 Y-3.967
X12.041 Y-4.251
X11.997 Y-4.33
G3 X12.014 Y-4.629 Z-6.979 I0.268 J-0.135
G1 X12.046 Y-4.671 Z-6.957
X12.083 Y-4.708 Z-6.934
X12.125 Y-4.738 Z-6.912
G3 X12.62 Y-4.623 I0.19 J0.305
X12.655 Y-4.549 I-0.305 J0.19
X12.598 Y-3.768 I-0.946 J0.323
G1 X12.56 Y-3.7 Z-6.945
X12.516 Y-3.635 Z-6.979
G2 X12.483 Y-3.337 Z-7.112 I0.242 J0.177
G1 X12.697 Y-2.891 F1800
X12.768 Y-2.759
X12.868 Y-2.647
X12.986 Y-2.555
X13.117 Y-2.481
X13.255 Y-2.423
X13.399 Y-2.38
X13.546 Y-2.35
X13.702 Y-2.332
X13.868 Y-2.325
X14.054 Y-2.334
X14.245 Y-2.357
X14.444 Y-2.399
X14.653 Y-2.46
X14.866 Y-2.541
X15.077 Y-2.642
X15.284 Y-2.762
X15.483 Y-2.9
X15.67 Y-3.054
X15.844 Y-3.221
X16. Y-3.397
X16.137 Y-3.58
X16.149 Y-3.599
X16.237 Y-3.805
X16.255 Y-4.029
X16.202 Y-4.246
X16.153 Y-4.357
X15.608 Y-5.491
G2 X15.355 Y-5.652 Z-6.979 I-0.266 J0.139 F2000
G1 X15.303 Y-5.649 Z-6.957
X15.252 Y-5.638 Z-6.934
X15.204 Y-5.617 Z-6.912
G2 X15.048 Y-5.332 I0.139 J0.261
X15.802 Y-4.444 I0.997 J-0.082
G1 X15.878 Y-4.428 Z-6.945
X15.956 Y-4.418 Z-6.979
G3 X16.202 Y-4.246 Z-7.112 I-0.027 J0.299
G1 X16.32 Y-3.967
X16.413 Y-3.741
X16.462 Y-3.6
X16.478 Y-3.451
X16.471 Y-3.301
X16.445 Y-3.153
X16.403 Y-3.009
X16.348 Y-2.87
X16.277 Y-2.728
X16.193 Y-2.588
X16.087 Y-2.441
X15.961 Y-2.293
X15.82 Y-2.151
X15.658 Y-2.013
X15.478 Y-1.882
X15.281 Y-1.762
X15.071 Y-1.657
X14.852 Y-1.568
X14.627 Y-1.497
X14.4 Y-1.445
X14.175 Y-1.413
X13.955 Y-1.398
X13.747 Y-1.402
X13.719 Y-1.405
X13.533 Y-1.449
X13.366 Y-1.541
X13.231 Y-1.675
X13.136 Y-1.841
X13.036 Y-2.093
X12.965 Y-2.267
X12.847 Y-2.55
X12.752 Y-2.775
X12.697 Y-2.891
G3 X12.731 Y-3.189 Z-6.979 I0.275 J-0.12
G1 X12.764 Y-3.229 Z-6.957
X12.804 Y-3.263 Z-6.934
X12.848 Y-3.292 Z-6.912
G3 X13.349 Y-3.15 I0.179 J0.322
X13.378 Y-3.081 I-0.322 J0.179
X13.281 Y-2.264 I-0.954 J0.3
G1 X13.237 Y-2.198 Z-6.945
X13.189 Y-2.136 Z-6.979
G2 X13.136 Y-1.841 Z-7.112 I0.229 J0.193
G1 X13.193 Y-1.7 F1800
X13.319 Y-1.376
X13.374 Y-1.237
X13.468 Y-1.12
X13.581 Y-1.021
X13.706 Y-0.939
X13.841 Y-0.873
X13.981 Y-0.82
X14.126 Y-0.78
X14.285 Y-0.751
X14.452 Y-0.734
X14.635 Y-0.73
X14.834 Y-0.742
X15.038 Y-0.77
X15.248 Y-0.817
X15.465 Y-0.884
X15.684 Y-0.972
X15.9 Y-1.079
X16.109 Y-1.204
X16.307 Y-1.346
X16.491 Y-1.501
X16.658 Y-1.668
X16.809 Y-1.844
X16.909 Y-2.041
X16.943 Y-2.26
X16.906 Y-2.478
X16.882 Y-2.55
X16.776 Y-2.834
X16.665 Y-3.117
X16.551 Y-3.401
X16.413 Y-3.741
G2 X16.169 Y-3.916 Z-6.979 I-0.273 J0.123 F2000
G1 X16.117 Y-3.917 Z-6.957
X16.065 Y-3.909 Z-6.934
X16.016 Y-3.891 Z-6.912
G2 X15.841 Y-3.604 I0.123 J0.272
X16.523 Y-2.707 I0.999 J-0.051
G1 X16.598 Y-2.685 Z-6.945
X16.675 Y-2.669 Z-6.979
G3 X16.906 Y-2.478 Z-7.112 I-0.049 J0.296
G1 X16.977 Y-2.267
X17.076 Y-1.937
X17.11 Y-1.791
X17.111 Y-1.641
X17.091 Y-1.492
X17.051 Y-1.347
X16.997 Y-1.207
X16.93 Y-1.073
X16.848 Y-0.938
X16.748 Y-0.801
X16.632 Y-0.666
X16.493 Y-0.528
X16.336 Y-0.395
X16.163 Y-0.272
X15.974 Y-0.158
X15.767 Y-0.056
X15.549 Y0.031
X15.324 Y0.101
X15.094 Y0.152
X14.864 Y0.184
X14.638 Y0.197
X14.417 Y0.193
X14.208 Y0.171
X14.18 Y0.166
X13.995 Y0.104
X13.834 Y-0.006
X13.71 Y-0.157
X13.632 Y-0.336
X13.568 Y-0.567
X13.487 Y-0.85
X13.402 Y-1.134
X13.319 Y-1.376
G3 X13.387 Y-1.668 Z-6.979 I0.287 J-0.087
G1 X13.426 Y-1.704 Z-6.957
X13.469 Y-1.734 Z-6.934
X13.516 Y-1.757 Z-6.912
G3 X13.997 Y-1.557 I0.141 J0.341
X14.023 Y-1.455 I-0.341 J0.141
X13.823 Y-0.74 I-0.994 J0.107
G1 X13.772 Y-0.679 Z-6.945
X13.718 Y-0.623 Z-6.979
G2 X13.632 Y-0.336 Z-7.112 I0.207 J0.218
G1 X13.722 Y0. F1800
X13.761 Y0.156
X13.804 Y0.299
X13.887 Y0.425
X13.99 Y0.533
X14.108 Y0.627
X14.235 Y0.705
X14.37 Y0.77
X14.511 Y0.823
X14.667 Y0.867
X14.831 Y0.899
X15.014 Y0.92
X15.212 Y0.927
X15.416 Y0.917
X15.631 Y0.89
X15.854 Y0.843
X16.081 Y0.775
X16.307 Y0.688
X16.527 Y0.582
X16.739 Y0.459
X16.938 Y0.32
X17.121 Y0.168
X17.24 Y0.053
X17.353 Y-0.09
X17.426 Y-0.257
X17.453 Y-0.437
X17.433 Y-0.617
X17.375 Y-0.85
X17.286 Y-1.192
X17.224 Y-1.417
X17.145 Y-1.7
X17.076 Y-1.937
G2 X16.853 Y-2.136 Z-6.979 I-0.285 J0.094 F2000
G1 X16.801 Y-2.143 Z-6.957
X16.748 Y-2.141 Z-6.934
X16.697 Y-2.131 Z-6.912
G2 X16.463 Y-1.832 I0.089 J0.311
X17.069 Y-0.876 I0.999 J0.036
G1 X17.142 Y-0.848 Z-6.945
X17.218 Y-0.826 Z-6.979
G3 X17.433 Y-0.617 Z-7.112 I-0.074 J0.291
G1 X17.445 Y-0.567
X17.506 Y-0.283
X17.543 Y-0.057
X17.56 Y0.092
X17.549 Y0.241
X17.516 Y0.388
X17.465 Y0.529
X17.399 Y0.663
X17.32 Y0.791
X17.227 Y0.916
X17.116 Y1.043
X16.99 Y1.166
X16.84 Y1.29
X16.672 Y1.408
X16.491 Y1.514
X16.293 Y1.61
X16.079 Y1.693
X15.855 Y1.76
X15.625 Y1.809
X15.392 Y1.839
X15.161 Y1.85
X14.934 Y1.843
X14.715 Y1.818
X14.509 Y1.778
X14.438 Y1.758
X14.25 Y1.675
X14.095 Y1.54
X13.986 Y1.367
X13.931 Y1.169
X13.886 Y0.831
X13.845 Y0.567
X13.792 Y0.283
X13.761 Y0.156
G3 X13.854 Y-0.129 Z-6.979 I0.294 J-0.062
G1 X13.895 Y-0.161 Z-6.957
X13.94 Y-0.187 Z-6.934
X13.989 Y-0.207 Z-6.912
G3 X14.462 Y0.034 I0.116 J0.357
X14.478 Y0.194 I-0.357 J0.116
X14.18 Y0.797 I-0.993 J-0.116
G1 X14.121 Y0.85 Z-6.945
X14.058 Y0.897 Z-6.979
G2 X13.931 Y1.169 Z-7.112 I0.172 J0.246
G1 X13.962 Y1.417 F1800
X13.99 Y1.674
X14.013 Y1.823
X14.078 Y1.958
X14.165 Y2.08
X14.27 Y2.188
X14.386 Y2.282
X14.511 Y2.365
X14.644 Y2.435
X14.784 Y2.494
X14.945 Y2.548
X15.122 Y2.592
X15.309 Y2.623
X15.515 Y2.639
X15.735 Y2.64
X15.96 Y2.622
X16.188 Y2.585
X16.421 Y2.528
X16.654 Y2.451
X16.881 Y2.355
X17.099 Y2.242
X17.303 Y2.113
X17.494 Y1.97
X17.635 Y1.799
X17.716 Y1.593
X17.728 Y1.372
X17.703 Y1.134
X17.671 Y0.85
X17.635 Y0.567
X17.596 Y0.283
X17.548 Y-0.032
X17.543 Y-0.057
G2 X17.346 Y-0.283 Z-6.979 I-0.294 J0.059 F2000
G1 X17.295 Y-0.295 Z-6.957
X17.243 Y-0.298 Z-6.934
X17.191 Y-0.293 Z-6.912
G2 X16.966 Y-0.09 I0.059 J0.292
X17.403 Y1.065 I0.954 J0.299
G1 X17.472 Y1.103 Z-6.945
X17.544 Y1.136 Z-6.979
G3 X17.728 Y1.372 Z-7.112 I-0.113 J0.278
G1 X17.733 Y1.417
X17.755 Y1.7
X17.766 Y1.926
Y2.076
X17.738 Y2.224
X17.688 Y2.365
X17.62 Y2.499
X17.538 Y2.624
X17.445 Y2.742
X17.336 Y2.857
X17.214 Y2.967
X17.072 Y3.075
X16.908 Y3.181
X16.73 Y3.276
X16.537 Y3.361
X16.327 Y3.433
X16.106 Y3.49
X15.876 Y3.529
X15.641 Y3.55
X15.407 Y3.553
X15.177 Y3.536
X14.953 Y3.503
X14.741 Y3.453
X14.543 Y3.389
X14.459 Y3.354
X14.283 Y3.249
X14.145 Y3.097
X14.057 Y2.911
X14.027 Y2.708
X14.026 Y2.55
X14.024 Y2.267
X14.015 Y1.984
X13.993 Y1.7
X13.99 Y1.674
G3 X14.12 Y1.404 Z-6.979 I0.299 J-0.022
G1 X14.165 Y1.378 Z-6.957
X14.214 Y1.358 Z-6.934
X14.264 Y1.346 Z-6.912
G3 X14.693 Y1.646 I0.064 J0.364
X14.689 Y1.791 I-0.364 J0.064
X14.317 Y2.369 I-0.976 J-0.219
G1 X14.253 Y2.414 Z-6.945
X14.185 Y2.454 Z-6.979
G2 X14.027 Y2.708 Z-7.112 I0.141 J0.265
G1 Y2.834 F1800
X14.023 Y3.117
X14.021 Y3.203
X14.025 Y3.353
X14.07 Y3.496
X14.14 Y3.629
X14.228 Y3.75
X14.331 Y3.859
X14.445 Y3.957
X14.567 Y4.044
X14.697 Y4.121
X14.851 Y4.196
X15.016 Y4.26
X15.199 Y4.315
X15.401 Y4.359
X15.616 Y4.388
X15.839 Y4.399
X16.071 Y4.393
X16.309 Y4.367
X16.551 Y4.32
X16.789 Y4.255
X17.02 Y4.17
X17.24 Y4.069
X17.446 Y3.954
X17.458 Y3.946
X17.621 Y3.794
X17.727 Y3.599
X17.768 Y3.381
X17.774 Y3.117
X17.777 Y2.834
Y2.55
X17.774 Y2.267
X17.769 Y1.984
X17.766 Y1.926
G2 X17.595 Y1.681 Z-6.979 I-0.299 J0.026 F2000
G1 X17.545 Y1.663 Z-6.957
X17.494 Y1.654 Z-6.934
X17.442 Z-6.912
G2 X17.204 Y1.82 I0.028 J0.293
X17.485 Y3.035 I0.902 J0.431
G1 X17.548 Y3.082 Z-6.945
X17.615 Y3.123 Z-6.979
G3 X17.768 Y3.381 Z-7.112 I-0.147 J0.261
G1 X17.756 Y3.684
X17.745 Y3.91
X17.73 Y4.059
X17.688 Y4.203
X17.623 Y4.338
X17.541 Y4.464
X17.446 Y4.58
X17.34 Y4.686
X17.22 Y4.787
X17.089 Y4.881
X16.934 Y4.974
X16.763 Y5.06
X16.579 Y5.133
X16.377 Y5.196
X16.16 Y5.244
X15.932 Y5.276
X15.7 Y5.29
X15.465 Y5.285
X15.232 Y5.261
X15.004 Y5.219
X14.786 Y5.161
X14.581 Y5.088
X14.392 Y5.002
X14.301 Y4.952
X14.137 Y4.828
X14.017 Y4.661
X13.95 Y4.467
X13.942 Y4.262
X13.975 Y3.967
X14.002 Y3.684
X14.017 Y3.401
X14.021 Y3.203
G3 X14.186 Y2.952 Z-6.979 I0.299 J0.018
G1 X14.234 Y2.932 Z-6.957
X14.285 Y2.919 Z-6.934
X14.337 Y2.913 Z-6.912
G3 X14.727 Y3.269 I0.017 J0.374
X14.711 Y3.399 I-0.374 J0.017
X14.269 Y3.957 I-0.954 J-0.301
G1 X14.2 Y3.995 Z-6.945
X14.128 Y4.027 Z-6.979
G2 X13.942 Y4.262 Z-7.112 I0.111 J0.279
G1 X13.886 Y4.777 F1800
X13.877 Y4.927
X13.909 Y5.073
X13.967 Y5.212
X14.044 Y5.34
X14.136 Y5.459
X14.239 Y5.568
X14.352 Y5.667
X14.475 Y5.757
X14.621 Y5.848
X14.782 Y5.931
X14.958 Y6.004
X15.156 Y6.069
X15.37 Y6.12
X15.593 Y6.154
X15.825 Y6.171
X16.065 Y6.17
X16.309 Y6.149
X16.552 Y6.107
X16.79 Y6.047
X17.018 Y5.97
X17.179 Y5.9
X17.337 Y5.805
X17.464 Y5.673
X17.553 Y5.512
X17.597 Y5.334
X17.716 Y4.251
X17.742 Y3.967
X17.745 Y3.91
G2 X17.599 Y3.648 Z-6.979 I-0.3 J-0.004 F2000
G1 X17.552 Y3.625 Z-6.957
X17.502 Y3.61 Z-6.934
X17.45 Y3.603 Z-6.912
G2 X17.143 Y3.778 I-0.018 J0.325
X17.345 Y4.965 I0.888 J0.46
G1 X17.404 Y5.017 Z-6.945
X17.467 Y5.064 Z-6.979
G3 X17.597 Y5.334 Z-7.112 I-0.169 J0.248
G1 X17.56 Y5.668
X17.538 Y5.862
X17.513 Y6.01
X17.455 Y6.149
X17.376 Y6.276
X17.282 Y6.393
X17.176 Y6.498
X17.06 Y6.593
X16.93 Y6.682
X16.79 Y6.762
X16.626 Y6.839
X16.446 Y6.906
X16.256 Y6.961
X16.047 Y7.002
X15.824 Y7.029
X15.594 Y7.037
X15.36 Y7.027
X15.126 Y6.998
X14.895 Y6.95
X14.67 Y6.884
X14.457 Y6.803
X14.259 Y6.709
X14.078 Y6.604
X14.036 Y6.574
X13.891 Y6.44
X13.79 Y6.271
X13.739 Y6.08
X13.744 Y5.883
X13.78 Y5.668
X13.818 Y5.384
X13.886 Y4.777
G3 X14.071 Y4.542 Z-6.979 I0.297 J0.043
G1 X14.121 Y4.526 Z-6.957
X14.173 Y4.517 Z-6.934
X14.225 Y4.515 Z-6.912
G3 X14.596 Y4.909 I-0.012 J0.383
X14.578 Y5.013 I-0.383 J-0.012
X14.087 Y5.597 I-0.953 J-0.302
G1 X14.016 Y5.631 Z-6.945
X13.943 Y5.659 Z-6.979
G2 X13.744 Y5.883 Z-7.112 I0.095 J0.284
G1 X13.683 Y6.234 F1800
X13.656 Y6.39
X13.637 Y6.539
X13.659 Y6.687
X13.708 Y6.829
X13.776 Y6.963
X13.859 Y7.088
X13.955 Y7.203
X14.06 Y7.31
X14.183 Y7.414
X14.318 Y7.512
X14.477 Y7.609
X14.653 Y7.697
X14.842 Y7.773
X15.051 Y7.839
X15.275 Y7.89
X15.509 Y7.924
X15.75 Y7.939
X15.993 Y7.935
X16.236 Y7.911
X16.475 Y7.869
X16.704 Y7.808
X16.86 Y7.753
X17.024 Y7.67
X17.16 Y7.548
X17.26 Y7.394
X17.316 Y7.22
X17.341 Y7.085
X17.441 Y6.518
X17.488 Y6.234
X17.527 Y5.951
X17.538 Y5.862
G2 X17.41 Y5.591 Z-6.979 I-0.299 J-0.024 F2000
G1 X17.364 Y5.565 Z-6.957
X17.315 Y5.546 Z-6.934
X17.264 Y5.536 Z-6.912
G2 X16.934 Y5.713 I-0.039 J0.322
X17.092 Y6.834 I0.895 J0.446
G1 X17.147 Y6.89 Z-6.945
X17.206 Y6.941 Z-6.979
G3 X17.316 Y7.22 Z-7.112 I-0.187 J0.235
G1 X17.286 Y7.382
X17.216 Y7.737
X17.179 Y7.882
X17.113 Y8.017
X17.026 Y8.139
X16.923 Y8.249
X16.81 Y8.347
X16.687 Y8.433
X16.552 Y8.512
X16.407 Y8.581
X16.24 Y8.645
X16.055 Y8.699
X15.861 Y8.739
X15.651 Y8.766
X15.429 Y8.775
X15.199 Y8.767
X14.966 Y8.74
X14.735 Y8.694
X14.507 Y8.629
X14.288 Y8.547
X14.081 Y8.45
X13.889 Y8.34
X13.715 Y8.222
X13.673 Y8.188
X13.535 Y8.039
X13.446 Y7.856
X13.413 Y7.655
X13.439 Y7.453
X13.463 Y7.368
X13.522 Y7.085
X13.579 Y6.801
X13.633 Y6.518
X13.656 Y6.39
G3 X13.856 Y6.168 Z-6.979 I0.293 J0.063
G1 X13.933 Y6.151 Z-6.945
X14.011 Y6.15 Z-6.912
G3 X14.38 Y6.581 I-0.032 J0.4
X14.336 Y6.733 I-0.4 J-0.032
X13.811 Y7.206 I-0.889 J-0.459
G1 X13.737 Y7.232 Z-6.945
X13.661 Y7.252 Z-6.979
G2 X13.439 Y7.453 Z-7.112 I0.064 J0.293
G1 X13.383 Y7.651 F1800
X13.319 Y7.862
X13.296 Y7.935
X13.256 Y8.079
X13.262 Y8.229
X13.295 Y8.375
X13.349 Y8.515
X13.419 Y8.648
X13.503 Y8.773
X13.598 Y8.889
X13.703 Y8.999
X13.83 Y9.111
X13.978 Y9.222
X14.138 Y9.323
X14.321 Y9.419
X14.523 Y9.505
X14.739 Y9.577
X14.965 Y9.633
X15.2 Y9.672
X15.443 Y9.692
X15.689
X15.933 Y9.673
X16.169 Y9.635
X16.393 Y9.58
X16.406 Y9.576
X16.599 Y9.476
X16.752 Y9.323
X16.851 Y9.129
X16.871 Y9.068
X16.958 Y8.785
X17.042 Y8.501
X17.119 Y8.218
X17.216 Y7.737
G2 X17.111 Y7.456 Z-6.979 I-0.296 J-0.049 F2000
G1 X17.067 Y7.427 Z-6.957
X17.019 Y7.408 Z-6.934
X16.967 Y7.398 Z-6.912
X16.907 Y7.4
X16.849 Y7.416
X16.796 Y7.445
X16.751 Y7.485
G2 X16.68 Y8.717 I0.75 J0.661
G1 X16.727 Y8.779 Z-6.945
X16.779 Y8.838 Z-6.979
G3 X16.851 Y9.129 Z-7.112 I-0.217 J0.208
G1 X16.778 Y9.352
X16.681 Y9.635
X16.623 Y9.773
X16.54 Y9.899
X16.44 Y10.01
X16.326 Y10.107
X16.202 Y10.192
X16.07 Y10.264
X15.926 Y10.328
X15.772 Y10.382
X15.599 Y10.428
X15.408 Y10.462
X15.208 Y10.481
X14.997 Y10.484
X14.775 Y10.47
X14.548 Y10.437
X14.32 Y10.384
X14.096 Y10.313
X13.878 Y10.225
X13.671 Y10.121
X13.478 Y10.003
X13.3 Y9.874
X13.143 Y9.739
X13.093 Y9.689
X12.973 Y9.527
X12.904 Y9.338
X12.892 Y9.136
X12.938 Y8.94
X12.998 Y8.785
X13.036 Y8.688
X13.104 Y8.501
X13.203 Y8.218
X13.296 Y7.935
G3 X13.526 Y7.743 Z-6.979 I0.282 J0.104
G1 X13.578 Y7.737 Z-6.957
X13.63 Y7.739 Z-6.934
X13.682 Y7.749 Z-6.912
G3 X13.95 Y8.202 I-0.092 J0.361
X13.902 Y8.312 I-0.361 J-0.092
X13.332 Y8.731 I-0.839 J-0.544
G1 X13.256 Y8.749 Z-6.945
X13.178 Y8.761 Z-6.979
G2 X12.938 Y8.94 Z-7.112 I0.035 J0.298
G1 X12.887 Y9.068 F1800
X12.752 Y9.352
X12.694 Y9.49
X12.674 Y9.638
X12.683 Y9.788
X12.715 Y9.935
X12.765 Y10.076
X12.831 Y10.211
X12.908 Y10.339
X12.997 Y10.461
X13.107 Y10.589
X13.231 Y10.711
X13.376 Y10.833
X13.544 Y10.953
X13.727 Y11.062
X13.925 Y11.16
X14.141 Y11.246
X14.37 Y11.316
X14.609 Y11.369
X14.853 Y11.403
X15.098 Y11.417
X15.34 Y11.411
X15.575 Y11.386
X15.623 Y11.377
X15.827 Y11.305
X15.999 Y11.175
X16.123 Y10.998
X16.153 Y10.937
X16.233 Y10.768
X16.359 Y10.485
X16.436 Y10.293
X16.471 Y10.202
X16.579 Y9.918
X16.681 Y9.635
G2 X16.614 Y9.343 Z-6.979 I-0.287 J-0.088 F2000
G1 X16.574 Y9.309 Z-6.957
X16.528 Y9.284 Z-6.934
X16.477 Y9.271 Z-6.912
X16.417 Y9.27
X16.358 Y9.285
X16.305 Y9.315
G2 X16.011 Y10.566 I0.599 J0.801
G1 X16.049 Y10.634 Z-6.945
X16.093 Y10.7 Z-6.979
G3 X16.123 Y10.998 Z-7.112 I-0.243 J0.175
G1 X15.956 Y11.335
X15.887 Y11.472
X15.812 Y11.602
X15.715 Y11.716
X15.602 Y11.814
X15.476 Y11.897
X15.343 Y11.966
X15.204 Y12.021
X15.054 Y12.067
X14.895 Y12.102
X14.714 Y12.126
X14.523 Y12.137
X14.324 Y12.132
X14.113 Y12.109
X13.894 Y12.068
X13.672 Y12.007
X13.454 Y11.928
X13.241 Y11.831
X13.037 Y11.718
X12.845 Y11.59
X12.669 Y11.451
X12.511 Y11.304
X12.372 Y11.153
X12.315 Y11.079
X12.214 Y10.9
X12.169 Y10.7
X12.184 Y10.496
X12.258 Y10.304
X12.316 Y10.202
X12.469 Y9.918
X12.614 Y9.635
X12.752 Y9.352
G3 X13.006 Y9.192 Z-6.979 I0.265 J0.14
G1 X13.058 Y9.193 Z-6.957
X13.11 Y9.202 Z-6.934
X13.16 Y9.218 Z-6.912
G3 X13.37 Y9.707 I-0.139 J0.349
X13.306 Y9.812 I-0.349 J-0.139
X12.678 Y10.153 I-0.759 J-0.651
G1 X12.6 Y10.16 Z-6.945
X12.522 Y10.161 Z-6.979
G2 X12.258 Y10.304 Z-7.112 I-0.008 J0.3
G1 X12.185 Y10.433 F1800
X12.155 Y10.485
X12.015 Y10.711
X11.942 Y10.842
X11.906 Y10.988
X11.898 Y11.138
X11.912 Y11.287
X11.945 Y11.433
X11.994 Y11.575
X12.055 Y11.712
X12.129 Y11.844
X12.223 Y11.984
X12.332 Y12.121
X12.461 Y12.26
X12.613 Y12.399
X12.782 Y12.53
X12.967 Y12.651
X13.171 Y12.762
X13.39 Y12.86
X13.621 Y12.941
X13.86 Y13.004
X14.101 Y13.047
X14.342 Y13.071
X14.579 Y13.075
X14.623 Y13.072
X14.827 Y13.028
X15.008 Y12.926
X15.152 Y12.776
X15.168 Y12.752
X15.303 Y12.532
X15.503 Y12.185
X15.586 Y12.038
X15.66 Y11.902
X15.811 Y11.619
X15.887 Y11.472
G2 X15.861 Y11.173 Z-6.979 I-0.272 J-0.127 F2000
G1 X15.825 Y11.135 Z-6.957
X15.779 Y11.11 Z-6.934
X15.728 Y11.099 Z-6.912
X15.686 Y11.102
X15.646 Y11.115
G2 X15.108 Y12.331 I0.414 J0.91
G1 X15.135 Y12.405 Z-6.945
X15.168 Y12.477 Z-6.979
G3 X15.152 Y12.776 Z-7.112 I-0.268 J0.135
G1 X15.019 Y12.964
X14.968 Y13.036
X14.826 Y13.23
X14.731 Y13.346
X14.616 Y13.442
X14.488 Y13.52
X14.351 Y13.582
X14.209 Y13.63
X14.063 Y13.664
X13.904 Y13.687
X13.736 Y13.698
X13.556 Y13.695
X13.36 Y13.676
X13.157 Y13.64
X12.953 Y13.586
X12.744 Y13.513
X12.534 Y13.42
X12.33 Y13.309
X12.134 Y13.181
X11.951 Y13.039
X11.782 Y12.886
X11.63 Y12.723
X11.496 Y12.554
X11.382 Y12.384
X11.342 Y12.313
X11.27 Y12.123
X11.255 Y11.92
X11.299 Y11.721
X11.399 Y11.543
X11.619 Y11.258
X11.774 Y11.052
X11.945 Y10.817
X11.979 Y10.768
X12.015 Y10.711
G3 X12.284 Y10.579 Z-6.979 I0.249 J0.167
G1 X12.336 Y10.586 Z-6.957
X12.386 Y10.6 Z-6.934
X12.434 Y10.622 Z-6.912
G3 X12.578 Y11.113 I-0.173 J0.318
X12.494 Y11.216 I-0.318 J-0.173
X11.837 Y11.453 I-0.646 J-0.763
G1 X11.758 Y11.449 Z-6.945
X11.68 Y11.439 Z-6.979
G2 X11.399 Y11.543 Z-7.112 I-0.05 J0.296
G1 X11.335 Y11.626 F1800
X11.096 Y11.925
X11.007 Y12.046
X10.953 Y12.186
X10.926 Y12.333
X10.921 Y12.483
X10.934 Y12.633
X10.963 Y12.78
X11.005 Y12.924
X11.06 Y13.063
X11.134 Y13.215
X11.225 Y13.369
X11.333 Y13.522
X11.464 Y13.679
X11.616 Y13.835
X11.784 Y13.981
X11.97 Y14.117
X12.173 Y14.243
X12.391 Y14.355
X12.619 Y14.45
X12.853 Y14.526
X13.09 Y14.582
X13.324 Y14.618
X13.351 Y14.62
X13.572 Y14.601
X13.776 Y14.514
X13.942 Y14.367
X14.105 Y14.169
X14.169 Y14.089
X14.329 Y13.886
X14.547 Y13.602
X14.761 Y13.319
X14.826 Y13.23
G2 X14.848 Y12.931 Z-6.979 I-0.248 J-0.169 F2000
G1 X14.821 Y12.886 Z-6.957
X14.787 Y12.847 Z-6.934
X14.746 Y12.814 Z-6.912
G2 X14.449 Y12.797 I-0.163 J0.245
X13.933 Y13.92 I0.456 J0.89
G1 X13.954 Y13.996 Z-6.945
X13.981 Y14.07 Z-6.979
G3 X13.942 Y14.367 Z-7.112 I-0.277 J0.115
G1 X13.872 Y14.452
X13.621 Y14.736
X13.56 Y14.799
X13.45 Y14.902
X13.323 Y14.983
X13.187 Y15.044
X13.043 Y15.088
X12.896 Y15.117
X12.747 Y15.133
X12.587 Y15.135
X12.421 Y15.124
X12.242 Y15.098
X12.051 Y15.055
X11.857 Y14.993
X11.661 Y14.914
X11.463 Y14.814
X11.267 Y14.695
X11.078 Y14.558
X10.9 Y14.406
X10.736 Y14.241
X10.587 Y14.066
X10.456 Y13.884
X10.345 Y13.698
X10.253 Y13.515
X10.219 Y13.429
X10.171 Y13.225
X10.185 Y13.016
X10.261 Y12.82
X10.391 Y12.656
X10.485 Y12.568
X10.589 Y12.469
X10.768 Y12.292
X10.871 Y12.185
X11.052 Y11.979
X11.096 Y11.925
G3 X11.38 Y11.829 Z-6.979 I0.225 J0.198
G1 X11.431 Y11.843 Z-6.957
X11.479 Y11.864 Z-6.934
X11.523 Y11.891 Z-6.912
G3 X11.615 Y12.417 I-0.217 J0.309
X11.486 Y12.531 I-0.309 J-0.217
X10.837 Y12.638 I-0.478 J-0.879
G1 X10.76 Y12.621 Z-6.945
X10.685 Y12.599 Z-6.979
G2 X10.391 Y12.656 Z-7.112 I-0.097 J0.284
G1 X10.288 Y12.752 F1800
X10.202 Y12.831
X10.02 Y12.994
X9.914 Y13.1
X9.841 Y13.231
X9.794 Y13.373
X9.768 Y13.521
X9.761 Y13.671
X9.769 Y13.821
X9.791 Y13.969
X9.827 Y14.116
X9.879 Y14.279
X9.947 Y14.441
X10.034 Y14.611
X10.144 Y14.787
X10.272 Y14.96
X10.417 Y15.127
X10.584 Y15.29
X10.769 Y15.444
X10.97 Y15.586
X11.184 Y15.712
X11.406 Y15.82
X11.633 Y15.909
X11.861 Y15.977
X11.875 Y15.98
X12.094 Y15.992
X12.306 Y15.935
X12.491 Y15.816
X12.752 Y15.58
X13.051 Y15.303
X13.345 Y15.019
X13.56 Y14.799
G2 X13.623 Y14.507 Z-6.979 I-0.222 J-0.202 F2000
G1 X13.603 Y14.458 Z-6.957
X13.574 Y14.415 Z-6.934
X13.537 Y14.378 Z-6.912
G2 X13.284 Y14.321 I-0.181 J0.214
X12.547 Y15.373 I0.26 J0.966
G1 X12.557 Y15.451 Z-6.945
X12.573 Y15.528 Z-6.979
G3 X12.491 Y15.816 Z-7.112 I-0.291 J0.072
G1 X12.431 Y15.869
X12.185 Y16.083
X12.071 Y16.181
X11.951 Y16.271
X11.815 Y16.335
X11.672 Y16.378
X11.524 Y16.403
X11.374 Y16.412
X11.224 Y16.407
X11.065 Y16.388
X10.903 Y16.355
X10.729 Y16.305
X10.545 Y16.236
X10.362 Y16.15
X10.179 Y16.045
X9.995 Y15.918
X9.816 Y15.774
X9.647 Y15.613
X9.49 Y15.437
X9.349 Y15.251
X9.225 Y15.056
X9.119 Y14.857
X9.033 Y14.658
X8.967 Y14.463
X8.943 Y14.369
X8.923 Y14.156
X8.969 Y13.947
X9.075 Y13.762
X9.232 Y13.617
X9.352 Y13.536
X9.643 Y13.319
X9.918 Y13.085
X10.02 Y12.994
G3 X10.315 Y12.942 Z-6.979 I0.193 J0.23
G1 X10.386 Y12.976 Z-6.945
X10.448 Y13.024 Z-6.912
G3 X10.467 Y13.574 I-0.266 J0.284
X10.297 Y13.68 I-0.284 J-0.266
X9.676 Y13.67 I-0.295 J-0.956
G1 X9.602 Y13.641 Z-6.945
X9.532 Y13.607 Z-6.979
G2 X9.232 Y13.617 Z-7.112 I-0.141 J0.265
G1 X8.829 Y13.886 F1800
X8.709 Y13.975
X8.612 Y14.09
X8.541 Y14.222
X8.491 Y14.363
X8.459 Y14.51
X8.444 Y14.659
X8.443 Y14.809
X8.455 Y14.961
X8.481 Y15.126
X8.523 Y15.294
X8.583 Y15.476
X8.663 Y15.663
X8.76 Y15.849
X8.879 Y16.038
X9.019 Y16.226
X9.178 Y16.407
X9.355 Y16.578
X9.547 Y16.735
X9.75 Y16.876
X9.962 Y17.
X10.178 Y17.103
X10.212 Y17.116
X10.428 Y17.162
X10.647 Y17.138
X10.848 Y17.046
X11.052 Y16.911
X11.619 Y16.53
X11.749 Y16.436
X11.902 Y16.322
X12.071 Y16.181
G2 X12.164 Y15.896 Z-6.979 I-0.2 J-0.223 F2000
G1 X12.149 Y15.846 Z-6.957
X12.124 Y15.8 Z-6.934
X12.09 Y15.76 Z-6.912
X12.045 Y15.724
X11.992 Y15.698
X11.935 Y15.685
X11.877 Y15.684
G2 X10.971 Y16.617 I0.092 J0.996
G1 X10.969 Y16.695 Z-6.945
X10.973 Y16.774 Z-6.979
G3 X10.848 Y17.046 Z-7.112 I-0.299 J0.028
G1 X10.768 Y17.099
X10.394 Y17.34
X10.264 Y17.414
X10.121 Y17.46
X9.973 Y17.483
X9.823 Y17.488
X9.674 Y17.477
X9.526 Y17.451
X9.374 Y17.411
X9.218 Y17.357
X9.05 Y17.283
X8.882 Y17.192
X8.713 Y17.082
X8.544 Y16.952
X8.379 Y16.801
X8.221 Y16.633
X8.076 Y16.451
X7.945 Y16.257
X7.83 Y16.053
X7.734 Y15.844
X7.657 Y15.633
X7.599 Y15.426
X7.561 Y15.224
X7.554 Y15.161
X7.56 Y14.96
X7.624 Y14.77
X7.739 Y14.605
X7.897 Y14.48
X7.943 Y14.452
X8.218 Y14.28
X8.501 Y14.099
X8.829 Y13.886
G3 X9.129 Y13.878 Z-6.979 I0.157 J0.256
G1 X9.173 Y13.906 Z-6.957
X9.213 Y13.939 Z-6.934
X9.248 Y13.978 Z-6.912
G3 X9.183 Y14.514 I-0.301 J0.235
X9.087 Y14.569 I-0.235 J-0.301
X8.336 Y14.561 I-0.364 J-0.931
G1 X8.265 Y14.527 Z-6.945
X8.196 Y14.489 Z-6.979
G2 X7.897 Y14.48 Z-7.112 I-0.158 J0.255
G1 X7.651 Y14.623 F1800
X7.451 Y14.736
X7.324 Y14.816
X7.225 Y14.928
X7.148 Y15.057
X7.09 Y15.195
X7.048 Y15.34
X7.022 Y15.487
X7.01 Y15.637
Y15.794
X7.023 Y15.96
X7.052 Y16.143
X7.098 Y16.33
X7.163 Y16.524
X7.248 Y16.725
X7.354 Y16.928
X7.48 Y17.127
X7.623 Y17.319
X7.784 Y17.502
X7.961 Y17.672
X8.149 Y17.827
X8.346 Y17.964
X8.499 Y18.053
X8.667 Y18.123
X8.846 Y18.148
X9.026 Y18.126
X9.195 Y18.058
X9.635 Y17.81
X9.918 Y17.641
X10.034 Y17.57
X10.394 Y17.34
G2 X10.523 Y17.069 Z-6.979 I-0.17 J-0.247 F2000
G1 X10.514 Y17.017 Z-6.957
X10.497 Y16.968 Z-6.934
X10.472 Y16.922 Z-6.912
G2 X10.158 Y16.789 I-0.258 J0.172
X9.347 Y17.638 I0.18 J0.984
G1 X9.34 Y17.716 Z-6.945
X9.338 Y17.795 Z-6.979
G3 X9.195 Y18.058 Z-7.112 I-0.3 J0.007
G1 X8.745 Y18.309
X8.611 Y18.376
X8.466 Y18.414
X8.316 Y18.428
X8.167 Y18.422
X8.018 Y18.4
X7.873 Y18.364
X7.726 Y18.313
X7.579 Y18.249
X7.421 Y18.164
X7.261 Y18.061
X7.104 Y17.941
X6.946 Y17.799
X6.793 Y17.637
X6.65 Y17.458
X6.519 Y17.265
X6.403 Y17.06
X6.303 Y16.847
X6.222 Y16.628
X6.16 Y16.409
X6.118 Y16.193
X6.094 Y15.984
X6.092 Y15.928
X6.112 Y15.737
X6.183 Y15.559
X6.3 Y15.406
X6.454 Y15.291
X6.801 Y15.1
X7.451 Y14.736
G3 X7.75 Y14.75 Z-6.979 I0.138 J0.267
G1 X7.792 Y14.781 Z-6.957
X7.829 Y14.818 Z-6.934
X7.86 Y14.86 Z-6.912
G3 X7.901 Y15.161 I-0.306 J0.195
X7.7 Y15.387 I-0.347 J-0.106
X6.891 Y15.383 I-0.4 J-0.917
G1 X6.821 Y15.348 Z-6.945
X6.753 Y15.308 Z-6.979
G2 X6.454 Y15.291 Z-7.112 I-0.164 J0.251
G1 X6.234 Y15.411 F1800
X6.04 Y15.504
X5.908 Y15.575
X5.798 Y15.677
X5.709 Y15.798
X5.639 Y15.931
X5.585 Y16.071
X5.546 Y16.216
X5.521 Y16.364
X5.509 Y16.518
X5.508 Y16.684
X5.522 Y16.868
X5.552 Y17.055
X5.6 Y17.252
X5.668 Y17.459
X5.756 Y17.669
X5.863 Y17.876
X5.989 Y18.078
X6.134 Y18.272
X6.294 Y18.455
X6.468 Y18.623
X6.651 Y18.774
X6.838 Y18.905
X6.869 Y18.924
X7.078 Y19.005
X7.302 Y19.015
X7.518 Y18.954
X7.651 Y18.893
X7.935 Y18.752
X8.032 Y18.703
X8.547 Y18.42
X8.745 Y18.309
G2 X8.89 Y18.046 Z-6.979 I-0.156 J-0.257 F2000
G1 X8.884 Y17.994 Z-6.957
X8.869 Y17.944 Z-6.934
X8.845 Y17.898 Z-6.912
G2 X8.568 Y17.765 I-0.245 J0.155
X7.703 Y18.548 I0.113 J0.994
G1 X7.689 Y18.625 Z-6.945
X7.682 Y18.703 Z-6.979
G3 X7.518 Y18.954 Z-7.112 I-0.3 J-0.016
G1 X7.449 Y18.987
X7.085 Y19.142
X6.999 Y19.176
X6.857 Y19.226
X6.708 Y19.245
X6.558 Y19.242
X6.41 Y19.22
X6.265 Y19.183
X6.124 Y19.132
X5.98 Y19.065
X5.837 Y18.984
X5.688 Y18.884
X5.535 Y18.762
X5.389 Y18.624
X5.246 Y18.467
X5.111 Y18.291
X4.986 Y18.098
X4.875 Y17.892
X4.78 Y17.676
X4.703 Y17.455
X4.645 Y17.231
X4.606 Y17.008
X4.585 Y16.791
X4.583 Y16.585
X4.587 Y16.521
X4.63 Y16.323
X4.728 Y16.145
X4.873 Y16.003
X5.052 Y15.908
X5.16 Y15.869
X5.384 Y15.784
X5.668 Y15.669
X5.866 Y15.586
X6. Y15.523
X6.04 Y15.504
G3 X6.338 Y15.538 Z-6.979 I0.12 J0.275
G1 X6.378 Y15.572 Z-6.957
X6.413 Y15.611 Z-6.934
X6.442 Y15.654 Z-6.912
G3 X6.302 Y16.177 I-0.332 J0.192
X6.166 Y16.225 I-0.192 J-0.332
X5.468 Y16.07 I-0.147 J-0.989
G1 X5.405 Y16.024 Z-6.945
X5.345 Y15.973 Z-6.979
G2 X5.052 Y15.908 Z-7.112 I-0.203 J0.221
G1 X4.817 Y15.991 F1800
X4.591 Y16.066
X4.452 Y16.12
X4.33 Y16.208
X4.227 Y16.317
X4.142 Y16.44
X4.072 Y16.573
X4.016 Y16.712
X3.975 Y16.856
X3.945 Y17.004
X3.925 Y17.171
X3.917 Y17.352
X3.925 Y17.539
X3.95 Y17.742
X3.994 Y17.956
X4.056 Y18.172
X4.138 Y18.388
X4.24 Y18.603
X4.362 Y18.814
X4.502 Y19.017
X4.656 Y19.207
X4.823 Y19.381
X4.998 Y19.537
X5.023 Y19.555
X5.215 Y19.658
X5.43 Y19.696
X5.646 Y19.667
X5.668 Y19.66
X5.992 Y19.553
X6.234 Y19.469
X6.518 Y19.366
X6.801 Y19.257
X6.999 Y19.176
G2 X7.175 Y18.934 Z-6.979 I-0.123 J-0.274 F2000
G1 Y18.881 Z-6.957
X7.165 Y18.83 Z-6.934
X7.145 Y18.782 Z-6.912
X7.109 Y18.73
X7.061 Y18.689
X7.006 Y18.66
X6.945 Y18.645
G2 X5.887 Y19.291 I-0.12 J0.993
G1 X5.862 Y19.365 Z-6.945
X5.844 Y19.442 Z-6.979
G3 X5.646 Y19.667 Z-7.112 I-0.294 J-0.059
G1 X5.384 Y19.746
X5.101 Y19.821
X4.953 Y19.849
X4.803 Y19.848
X4.655 Y19.826
X4.511 Y19.785
X4.372 Y19.729
X4.238 Y19.661
X4.102 Y19.576
X3.968 Y19.476
X3.833 Y19.358
X3.696 Y19.217
X3.566 Y19.059
X3.444 Y18.886
X3.332 Y18.694
X3.232 Y18.487
X3.147 Y18.269
X3.08 Y18.044
X3.032 Y17.816
X3.003 Y17.588
X2.992 Y17.363
X2.999 Y17.146
X3.022 Y16.942
X3.036 Y16.871
X3.105 Y16.676
X3.228 Y16.51
X3.394 Y16.387
X3.589 Y16.318
X3.684 Y16.299
X3.967 Y16.236
X4.251 Y16.167
X4.534 Y16.085
X4.591 Y16.066
G3 X4.883 Y16.137 Z-6.979 I0.084 J0.288
G1 X4.918 Y16.176 Z-6.957
X4.948 Y16.219 Z-6.934
X4.971 Y16.266 Z-6.912
G3 X4.766 Y16.764 I-0.352 J0.147
X4.604 Y16.793 I-0.147 J-0.352
X3.977 Y16.539 I0.041 J-0.999
G1 X3.92 Y16.484 Z-6.945
X3.869 Y16.425 Z-6.979
G2 X3.589 Y16.318 Z-7.112 I-0.233 J0.189
G1 X3.401 Y16.354 F1800
X3.117 Y16.404
X2.97 Y16.435
X2.837 Y16.503
X2.719 Y16.596
X2.616 Y16.705
X2.528 Y16.826
X2.453 Y16.956
X2.392 Y17.093
X2.341 Y17.235
X2.298 Y17.398
X2.267 Y17.571
X2.248 Y17.758
X2.244 Y17.964
X2.258 Y18.178
X2.289 Y18.397
X2.34 Y18.622
X2.412 Y18.851
X2.503 Y19.079
X2.614 Y19.3
X2.741 Y19.511
X2.884 Y19.709
X3.038 Y19.89
X3.065 Y19.917
X3.242 Y20.046
X3.449 Y20.114
X3.668
X3.967 Y20.063
X4.251 Y20.01
X4.534 Y19.952
X4.817 Y19.889
X5.101 Y19.821
G2 X5.306 Y19.602 Z-6.979 I-0.087 J-0.287 F2000
G1 X5.312 Y19.55 Z-6.957
X5.309 Y19.498 Z-6.934
X5.295 Y19.448 Z-6.912
X5.267 Y19.394
X5.228 Y19.348
X5.179 Y19.312
X5.123 Y19.289
G2 X3.958 Y19.774 I-0.284 J0.959
G1 X3.924 Y19.845 Z-6.945
X3.895 Y19.918 Z-6.979
G3 X3.668 Y20.114 Z-7.112 I-0.283 J-0.099
G1 X3.401 Y20.155
X3.117 Y20.195
X2.967 Y20.203
X2.819 Y20.183
X2.675 Y20.142
X2.537 Y20.082
X2.406 Y20.009
X2.282 Y19.924
X2.158 Y19.822
X2.04 Y19.708
X1.919 Y19.571
X1.802 Y19.414
X1.695 Y19.244
X1.597 Y19.056
X1.509 Y18.85
X1.437 Y18.632
X1.381 Y18.405
X1.344 Y18.173
X1.325 Y17.941
X1.326 Y17.711
X1.344 Y17.487
X1.379 Y17.274
X1.427 Y17.076
X1.457 Y16.988
X1.553 Y16.801
X1.7 Y16.65
X1.885 Y16.55
X2.092 Y16.51
X2.267 Y16.503
X2.55 Y16.484
X2.834 Y16.448
X3.117 Y16.404
G3 X3.393 Y16.522 Z-6.979 I0.036 J0.298
G1 X3.421 Y16.566 Z-6.957
X3.444 Y16.613 Z-6.934
X3.459 Y16.663 Z-6.912
G3 X3.175 Y17.128 I-0.374 J0.09
X3.003 Y17.13 I-0.09 J-0.374
X2.443 Y16.787 I0.212 J-0.977
G1 X2.395 Y16.725 Z-6.945
X2.353 Y16.658 Z-6.979
G2 X2.092 Y16.51 Z-7.112 I-0.259 J0.152
G1 X1.984 Y16.515 F1800
X1.7 Y16.52
X1.615 Y16.521
X1.465 Y16.529
X1.322 Y16.576
X1.192 Y16.65
X1.074 Y16.743
X0.969 Y16.85
X0.877 Y16.968
X0.795 Y17.094
X0.725 Y17.229
X0.659 Y17.383
X0.604 Y17.547
X0.558 Y17.733
X0.524 Y17.935
X0.507 Y18.145
Y18.368
X0.525 Y18.601
X0.563 Y18.838
X0.621 Y19.078
X0.699 Y19.313
X0.795 Y19.541
X0.908 Y19.758
X1.036 Y19.961
X1.057 Y19.989
X1.212 Y20.141
X1.406 Y20.238
X1.621 Y20.271
X1.7
X1.984 Y20.266
X2.267 Y20.257
X2.55 Y20.243
X2.834 Y20.224
X3.117 Y20.195
G2 X3.347 Y20.003 Z-6.979 I-0.052 J-0.295 F2000
G1 X3.36 Y19.952 Z-6.957
X3.362 Y19.9 Z-6.934
X3.353 Y19.848 Z-6.912
X3.334 Y19.801
X3.307 Y19.76
X3.272 Y19.724
X3.23 Y19.696
G2 X1.959 Y19.979 I-0.471 J0.882
G1 X1.914 Y20.043 Z-6.945
X1.875 Y20.111 Z-6.979
G3 X1.621 Y20.271 Z-7.112 I-0.265 J-0.14
G1 X1.417 Y20.272
X1.134 Y20.269
X1.086 Y20.268
X0.937 Y20.256
X0.792 Y20.219
X0.654 Y20.16
X0.525 Y20.083
X0.405 Y19.994
X0.293 Y19.893
X0.186 Y19.777
X0.085 Y19.649
X-0.016 Y19.497
X-0.11 Y19.329
X-0.193 Y19.148
X-0.265 Y18.948
X-0.324 Y18.733
X-0.367 Y18.507
X-0.391 Y18.276
X-0.397 Y18.042
X-0.385 Y17.809
X-0.354 Y17.581
X-0.306 Y17.362
X-0.243 Y17.156
X-0.168 Y16.966
X-0.129 Y16.886
X-0.015 Y16.72
X0.141 Y16.593
X0.328 Y16.516
X0.528 Y16.495
X0.85 Y16.509
X1.134 Y16.518
X1.417 Y16.522
X1.615 Y16.521
G3 X1.87 Y16.678 Z-6.979 I-0.009 J0.3
G1 X1.891 Y16.726 Z-6.957
X1.906 Y16.776 Z-6.934
X1.913 Y16.828 Z-6.912
G3 X1.571 Y17.217 I-0.365 J0.024
X1.472 Y17.21 I-0.024 J-0.365
X0.855 Y16.8 I0.205 J-0.979
G1 X0.813 Y16.734 Z-6.945
X0.776 Y16.665 Z-6.979
G2 X0.528 Y16.495 Z-7.112 I-0.27 J0.13
G1 X0.283 Y16.485 F1800
X-0.047 Y16.505
X-0.196 Y16.522
X-0.338 Y16.572
X-0.469 Y16.645
X-0.589 Y16.735
X-0.697 Y16.838
X-0.795 Y16.952
X-0.883 Y17.074
X-0.967 Y17.215
X-1.042 Y17.366
X-1.11 Y17.537
X-1.169 Y17.729
X-1.213 Y17.932
X-1.243 Y18.146
X-1.256 Y18.374
X-1.25 Y18.61
X-1.225 Y18.85
X-1.18 Y19.091
X-1.117 Y19.326
X-1.035 Y19.553
X-0.937 Y19.768
X-0.858 Y19.912
X-0.74 Y20.069
X-0.583 Y20.186
X-0.4 Y20.256
X-0.205 Y20.272
X0. Y20.26
X0.283 Y20.24
X0.85 Y20.262
X1.086 Y20.268
G2 X1.345 Y20.116 Z-6.979 I-0.003 J-0.3 F2000
G1 X1.377 Y20.044 Z-6.945
X1.394 Y19.968 Z-6.912
G2 X1.307 Y19.667 I-0.396 J-0.049
X1.031 Y19.521 I-0.31 J0.252
X0.116 Y19.962 I-0.083 J0.997
G1 X0.075 Y20.029 Z-6.945
X0.04 Y20.099 Z-6.979
G3 X-0.205 Y20.272 Z-7.112 I-0.272 J-0.126
G1 X-0.283 Y20.276
X-0.567 Y20.289
X-0.723 Y20.294
X-0.873 Y20.29
X-1.018 Y20.255
X-1.156 Y20.196
X-1.285 Y20.118
X-1.404 Y20.027
X-1.513 Y19.924
X-1.613 Y19.812
X-1.71 Y19.683
X-1.805 Y19.533
X-1.891 Y19.371
X-1.969 Y19.187
X-2.037 Y18.986
X-2.09 Y18.773
X-2.127 Y18.55
X-2.146 Y18.318
X-2.147 Y18.08
X-2.128 Y17.842
X-2.091 Y17.606
X-2.036 Y17.38
X-1.965 Y17.165
X-1.879 Y16.962
X-1.862 Y16.929
X-1.752 Y16.774
X-1.605 Y16.654
X-1.43 Y16.578
X-1.242 Y16.552
X-1.134
X-0.85 Y16.546
X-0.567 Y16.536
X-0.283 Y16.521
X-0.047 Y16.505
G3 X0.217 Y16.646 Z-6.979 I0.01 J0.3
G1 X0.252 Y16.716 Z-6.945
X0.271 Y16.792 Z-6.912
G3 X-0.053 Y17.234 I-0.383 J0.059
X-0.115 Y17.238 I-0.059 J-0.383
X-0.903 Y16.842 I0.01 J-1.
G1 X-0.948 Y16.778 Z-6.945
X-0.988 Y16.71 Z-6.979
G2 X-1.242 Y16.552 Z-7.112 I-0.265 J0.142
G1 X-1.417 F1800
X-1.7 Y16.538
X-1.747 Y16.534
X-1.897 Y16.526
X-2.04 Y16.572
X-2.173 Y16.641
X-2.296 Y16.728
X-2.407 Y16.828
X-2.509 Y16.938
X-2.6 Y17.057
X-2.688 Y17.196
X-2.768 Y17.345
X-2.844 Y17.518
X-2.909 Y17.708
X-2.96 Y17.908
X-2.997 Y18.124
X-3.017 Y18.354
X-3.019 Y18.591
X-3.002 Y18.832
X-2.965 Y19.072
X-2.909 Y19.308
X-2.836 Y19.535
X-2.746 Y19.752
X-2.677 Y19.887
X-2.579 Y20.031
X-2.448 Y20.146
X-2.293 Y20.226
X-2.123 Y20.264
X-1.984 Y20.278
X-1.7 Y20.296
X-1.417 Y20.303
X-1.134 Y20.302
X-0.85 Y20.297
X-0.723 Y20.294
G2 X-0.473 Y20.128 Z-6.979 I-0.019 J-0.299 F2000
G1 X-0.454 Y20.079 Z-6.957
X-0.446 Y20.028 Z-6.934
X-0.449 Y19.975 Z-6.912
X-0.466 Y19.916
X-0.496 Y19.862
X-0.539 Y19.817
X-0.591 Y19.784
G2 X-1.757 Y20.008 I-0.431 J0.902
G1 X-1.808 Y20.068 Z-6.945
X-1.854 Y20.132 Z-6.979
G3 X-2.123 Y20.264 Z-7.112 I-0.25 J-0.166
G1 X-2.267 Y20.25
X-2.55 Y20.22
X-2.669 Y20.205
X-2.817 Y20.179
X-2.956 Y20.123
X-3.085 Y20.047
X-3.204 Y19.955
X-3.312 Y19.851
X-3.41 Y19.737
X-3.5 Y19.613
X-3.588 Y19.467
X-3.667 Y19.309
X-3.74 Y19.131
X-3.802 Y18.934
X-3.849 Y18.726
X-3.88 Y18.509
X-3.895 Y18.281
X-3.891 Y18.046
X-3.868 Y17.811
X-3.826 Y17.578
X-3.767 Y17.353
X-3.691 Y17.139
X-3.601 Y16.937
X-3.499 Y16.749
X-3.473 Y16.71
X-3.341 Y16.56
X-3.172 Y16.454
X-2.979 Y16.399
X-2.779 Y16.402
X-2.55 Y16.438
X-2.267 Y16.477
X-1.984 Y16.509
X-1.747 Y16.534
G3 X-1.511 Y16.717 Z-6.979 I-0.041 J0.297
G1 X-1.494 Y16.767 Z-6.957
X-1.485 Y16.819 Z-6.934
X-1.484 Y16.871 Z-6.912
G3 X-1.865 Y17.222 I-0.366 J-0.015
X-1.989 Y17.194 I0.015 J-0.366
X-2.49 Y16.742 I0.382 J-0.924
G1 X-2.524 Y16.671 Z-6.945
X-2.553 Y16.598 Z-6.979
G2 X-2.779 Y16.402 Z-7.112 I-0.283 J0.098
G1 X-3.117 Y16.346 F1800
X-3.273 Y16.317
X-3.422 Y16.297
X-3.57 Y16.319
X-3.712 Y16.368
X-3.845 Y16.437
X-3.969 Y16.522
X-4.084 Y16.618
X-4.189 Y16.725
X-4.288 Y16.845
X-4.385 Y16.982
X-4.48 Y17.142
X-4.564 Y17.313
X-4.638 Y17.504
X-4.701 Y17.713
X-4.75 Y17.937
X-4.781 Y18.169
X-4.793 Y18.409
X-4.786 Y18.653
X-4.76 Y18.897
X-4.714 Y19.138
X-4.65 Y19.369
X-4.57 Y19.589
X-4.448 Y19.771
X-4.277 Y19.907
X-4.071 Y19.983
X-3.967 Y20.004
X-3.684 Y20.054
X-3.276 Y20.12
X-3.117 Y20.145
X-2.834 Y20.185
X-2.669 Y20.205
G2 X-2.397 Y20.079 Z-6.979 I0.026 J-0.299 F2000
G1 X-2.371 Y20.033 Z-6.957
X-2.354 Y19.984 Z-6.934
X-2.346 Y19.932 Z-6.912
G2 X-2.476 Y19.673 I-0.286 J-0.019
X-3.682 Y19.765 I-0.542 J0.84
G1 X-3.739 Y19.819 Z-6.945
X-3.791 Y19.878 Z-6.979
G3 X-4.071 Y19.983 Z-7.112 I-0.232 J-0.191
G1 X-4.251 Y19.947
X-4.534 Y19.873
X-4.606 Y19.853
X-4.748 Y19.806
X-4.881 Y19.737
X-5.002 Y19.648
X-5.111 Y19.545
X-5.208 Y19.43
X-5.293 Y19.307
X-5.371 Y19.171
X-5.441 Y19.021
X-5.503 Y18.856
X-5.557 Y18.67
X-5.596 Y18.471
X-5.621 Y18.263
X-5.629 Y18.043
X-5.619 Y17.815
X-5.591 Y17.584
X-5.543 Y17.354
X-5.478 Y17.129
X-5.395 Y16.913
X-5.298 Y16.71
X-5.188 Y16.52
X-5.07 Y16.349
X-5.004 Y16.268
X-4.85 Y16.128
X-4.661 Y16.04
X-4.455 Y16.011
X-4.25 Y16.044
X-3.905 Y16.153
X-3.684 Y16.217
X-3.401 Y16.293
X-3.273 Y16.317
G3 X-3.053 Y16.52 Z-6.979 I-0.066 J0.293
G1 X-3.04 Y16.571 Z-6.957
X-3.036 Y16.623 Z-6.934
X-3.039 Y16.675 Z-6.912
G3 X-3.449 Y16.994 I-0.365 J-0.045
X-3.596 Y16.943 I0.045 J-0.365
X-4.015 Y16.424 I0.523 J-0.852
G1 X-4.038 Y16.349 Z-6.945
X-4.056 Y16.272 Z-6.979
G2 X-4.25 Y16.044 Z-7.112 I-0.295 J0.054
G1 X-4.534 Y15.946 F1800
X-4.704 Y15.885
X-4.847 Y15.841
X-4.997 Y15.837
X-5.145 Y15.862
X-5.288 Y15.908
X-5.423 Y15.972
X-5.552 Y16.05
X-5.672 Y16.139
X-5.787 Y16.241
X-5.904 Y16.364
X-6.015 Y16.499
X-6.125 Y16.658
X-6.228 Y16.836
X-6.318 Y17.028
X-6.398 Y17.236
X-6.463 Y17.461
X-6.511 Y17.697
X-6.541 Y17.941
X-6.552 Y18.188
X-6.542 Y18.434
X-6.513 Y18.676
X-6.466 Y18.908
X-6.46 Y18.929
X-6.369 Y19.126
X-6.221 Y19.285
X-6.032 Y19.391
X-5.951 Y19.422
X-5.668 Y19.523
X-5.384 Y19.618
X-5.101 Y19.709
X-4.817 Y19.793
X-4.606 Y19.853
G2 X-4.318 Y19.769 Z-6.979 I0.071 J-0.292 F2000
G1 X-4.286 Y19.727 Z-6.957
X-4.264 Y19.68 Z-6.934
X-4.252 Y19.629 Z-6.912
X-4.251 Y19.579
X-4.26 Y19.53
X-4.279 Y19.483
X-4.307 Y19.442
G2 X-5.613 Y19.237 I-0.769 J0.639
G1 X-5.678 Y19.282 Z-6.945
X-5.739 Y19.332 Z-6.979
G3 X-6.032 Y19.391 Z-7.112 I-0.199 J-0.225
G1 X-6.234 Y19.316
X-6.354 Y19.27
X-6.518 Y19.205
X-6.652 Y19.139
X-6.776 Y19.055
X-6.885 Y18.952
X-6.98 Y18.835
X-7.062 Y18.709
X-7.131 Y18.576
X-7.19 Y18.432
X-7.239 Y18.278
X-7.28 Y18.102
X-7.309 Y17.913
X-7.323 Y17.716
X-7.32 Y17.505
X-7.3 Y17.284
X-7.261 Y17.059
X-7.203 Y16.834
X-7.127 Y16.613
X-7.033 Y16.399
X-6.924 Y16.196
X-6.802 Y16.007
X-6.67 Y15.835
X-6.532 Y15.682
X-6.441 Y15.596
X-6.269 Y15.477
X-6.069 Y15.414
X-5.859 Y15.413
X-5.658 Y15.474
X-5.384 Y15.606
X-5.101 Y15.733
X-4.747 Y15.869
X-4.704 Y15.885
G3 X-4.518 Y16.121 Z-6.979 I-0.112 J0.278
G1 X-4.515 Y16.173 Z-6.957
X-4.518 Y16.225 Z-6.934
X-4.529 Y16.276 Z-6.912
G3 X-4.991 Y16.534 I-0.36 J-0.102
X-5.123 Y16.466 I0.102 J-0.36
X-5.479 Y15.883 I0.625 J-0.781
G1 X-5.491 Y15.806 Z-6.945
X-5.498 Y15.727 Z-6.979
G2 X-5.658 Y15.474 Z-7.112 I-0.3 J0.013
G1 X-5.951 Y15.327 F1800
X-6.07 Y15.266
X-6.207 Y15.203
X-6.354 Y15.173
X-6.504
X-6.652 Y15.197
X-6.796 Y15.239
X-6.934 Y15.297
X-7.066 Y15.367
X-7.196 Y15.452
X-7.325 Y15.551
X-7.454 Y15.669
X-7.585 Y15.81
X-7.709 Y15.966
X-7.826 Y16.141
X-7.936 Y16.337
X-8.034 Y16.55
X-8.116 Y16.776
X-8.181 Y17.011
X-8.227 Y17.253
X-8.253 Y17.498
X-8.26 Y17.741
X-8.248 Y17.98
X-8.241 Y18.028
X-8.177 Y18.241
X-8.049 Y18.424
X-7.869 Y18.557
X-7.585 Y18.703
X-7.368 Y18.813
X-7.007 Y18.987
X-6.801 Y19.083
X-6.518 Y19.205
G2 X-6.223 Y19.151 Z-6.979 I0.101 J-0.283 F2000
G1 X-6.187 Y19.114 Z-6.957
X-6.158 Y19.07 Z-6.934
X-6.139 Y19.021 Z-6.912
X-6.129 Y18.963
X-6.132 Y18.905
X-6.147 Y18.848
X-6.174 Y18.796
G2 X-7.435 Y18.454 I-0.829 J0.56
G1 X-7.504 Y18.491 Z-6.945
X-7.571 Y18.533 Z-6.979
G3 X-7.869 Y18.557 Z-7.112 I-0.17 J-0.247
G1 X-8.337 Y18.313
X-8.466 Y18.237
X-8.577 Y18.136
X-8.67 Y18.018
X-8.748 Y17.89
X-8.812 Y17.755
X-8.862 Y17.613
X-8.901 Y17.467
X-8.93 Y17.304
X-8.948 Y17.122
X-8.951 Y16.935
X-8.939 Y16.733
X-8.908 Y16.521
X-8.858 Y16.303
X-8.79 Y16.086
X-8.703 Y15.871
X-8.598 Y15.661
X-8.476 Y15.461
X-8.341 Y15.274
X-8.196 Y15.103
X-8.042 Y14.95
X-7.882 Y14.814
X-7.819 Y14.768
X-7.642 Y14.677
X-7.447 Y14.64
X-7.249 Y14.66
X-7.066 Y14.736
X-6.801 Y14.884
X-6.07 Y15.266
G3 X-5.918 Y15.524 Z-6.979 I-0.148 J0.261
G1 X-5.921 Y15.576 Z-6.957
X-5.931 Y15.627 Z-6.934
X-5.949 Y15.677 Z-6.912
G3 X-6.439 Y15.869 I-0.342 J-0.149
X-6.51 Y15.829 I0.149 J-0.342
X-6.912 Y15.155 I0.588 J-0.809
G1 X-6.92 Y15.077 Z-6.945
X-6.921 Y14.999 Z-6.979
G2 X-7.066 Y14.736 Z-7.112 I-0.3 J-0.006
G1 X-7.504 Y14.473 F1800
X-7.636 Y14.402
X-7.783 Y14.371
X-7.933 Y14.367
X-8.082 Y14.384
X-8.228 Y14.419
X-8.37 Y14.468
X-8.506 Y14.53
X-8.642 Y14.605
X-8.782 Y14.699
X-8.928 Y14.814
X-9.068 Y14.944
X-9.206 Y15.095
X-9.34 Y15.268
X-9.466 Y15.46
X-9.578 Y15.666
X-9.676 Y15.885
X-9.756 Y16.114
X-9.819 Y16.351
X-9.862 Y16.591
X-9.886 Y16.829
X-9.89 Y17.062
X-9.84 Y17.281
X-9.723 Y17.474
X-9.551 Y17.619
X-9.068 Y17.908
X-8.785 Y18.073
X-8.67 Y18.136
X-8.501 Y18.227
X-8.337 Y18.313
G2 X-8.038 Y18.29 Z-6.979 I0.13 J-0.271 F2000
G1 X-7.997 Y18.257 Z-6.957
X-7.963 Y18.218 Z-6.934
X-7.935 Y18.174 Z-6.912
G2 X-7.975 Y17.82 I-0.283 J-0.146
X-9.111 Y17.543 I-0.76 J0.65
G1 X-9.182 Y17.575 Z-6.945
X-9.251 Y17.613 Z-6.979
G3 X-9.551 Y17.619 Z-7.112 I-0.155 J-0.257
G1 X-9.974 Y17.365
X-10.013 Y17.341
X-10.138 Y17.257
X-10.238 Y17.146
X-10.32 Y17.02
X-10.386 Y16.885
X-10.437 Y16.744
X-10.474 Y16.599
X-10.5 Y16.443
X-10.514 Y16.28
X-10.515 Y16.1
X-10.5 Y15.905
X-10.469 Y15.708
X-10.419 Y15.501
X-10.349 Y15.288
X-10.26 Y15.075
X-10.152 Y14.866
X-10.027 Y14.666
X-9.886 Y14.476
X-9.733 Y14.3
X-9.569 Y14.141
X-9.4 Y14.001
X-9.228 Y13.881
X-9.209 Y13.869
X-9.03 Y13.795
X-8.839 Y13.773
X-8.648 Y13.804
X-8.474 Y13.886
X-8.218 Y14.044
X-7.935 Y14.215
X-7.504 Y14.473
G3 X-7.368 Y14.74 Z-6.979 I-0.164 J0.251
G1 X-7.374 Y14.792 Z-6.957
X-7.388 Y14.843 Z-6.934
X-7.408 Y14.891 Z-6.912
G3 X-7.917 Y15.059 I-0.338 J-0.17
X-7.988 Y15.012 I0.17 J-0.338
X-8.348 Y14.314 I0.638 J-0.77
G1 X-8.35 Y14.235 Z-6.945
X-8.347 Y14.157 Z-6.979
G2 X-8.474 Y13.886 Z-7.112 I-0.299 J-0.026
G1 X-8.501 Y13.868 F1800
X-8.785 Y13.673
X-8.859 Y13.617
X-8.983 Y13.532
X-9.126 Y13.486
X-9.274 Y13.467
X-9.424 Y13.47
X-9.573 Y13.491
X-9.718 Y13.528
X-9.86 Y13.578
X-10.004 Y13.643
X-10.148 Y13.722
X-10.302 Y13.824
X-10.454 Y13.944
X-10.603 Y14.08
X-10.75 Y14.24
X-10.891 Y14.42
X-11.02 Y14.616
X-11.136 Y14.826
X-11.236 Y15.047
X-11.318 Y15.277
X-11.381 Y15.511
X-11.425 Y15.746
X-11.448 Y15.975
X-11.449 Y15.994
X-11.419 Y16.21
X-11.326 Y16.406
X-11.176 Y16.564
X-11.052 Y16.66
X-10.972 Y16.719
X-10.768 Y16.868
X-10.564 Y17.003
X-10.202 Y17.227
X-10.013 Y17.341
G2 X-9.714 Y17.337 Z-6.979 I0.147 J-0.262 F2000
G1 X-9.672 Y17.306 Z-6.957
X-9.636 Y17.268 Z-6.934
X-9.609 Y17.223 Z-6.912
G2 X-9.625 Y16.962 I-0.241 J-0.116
X-10.73 Y16.54 I-0.84 J0.543
G1 X-10.805 Y16.564 Z-6.945
X-10.878 Y16.594 Z-6.979
G3 X-11.176 Y16.564 Z-7.112 I-0.124 J-0.273
G1 X-11.342 Y16.436
X-11.593 Y16.235
X-11.706 Y16.136
X-11.797 Y16.017
X-11.869 Y15.885
X-11.922 Y15.745
X-11.961 Y15.6
X-11.986 Y15.452
X-11.998 Y15.295
Y15.133
X-11.983 Y14.954
X-11.951 Y14.762
X-11.903 Y14.569
X-11.836 Y14.368
X-11.749 Y14.165
X-11.642 Y13.962
X-11.517 Y13.764
X-11.376 Y13.576
X-11.22 Y13.401
X-11.053 Y13.24
X-10.878 Y13.097
X-10.698 Y12.973
X-10.519 Y12.869
X-10.453 Y12.838
X-10.26 Y12.778
X-10.058 Y12.776
X-9.864 Y12.832
X-9.694 Y12.941
X-9.583 Y13.036
X-9.238 Y13.319
X-9.068 Y13.455
X-8.859 Y13.617
G3 X-8.752 Y13.896 Z-6.979 I-0.189 J0.233
G1 X-8.764 Y13.947 Z-6.957
X-8.782 Y13.996 Z-6.934
X-8.808 Y14.042 Z-6.912
G3 X-9.325 Y14.151 I-0.313 J-0.204
X-9.414 Y14.07 I0.204 J-0.313
X-9.628 Y13.382 I0.783 J-0.622
G1 X-9.62 Y13.304 Z-6.945
X-9.606 Y13.227 Z-6.979
G2 X-9.694 Y12.941 Z-7.112 I-0.293 J-0.066
G1 X-9.918 Y12.746 F1800
X-10.037 Y12.631
X-10.15 Y12.533
X-10.284 Y12.465
X-10.428 Y12.426
X-10.577 Y12.408
X-10.727 Y12.409
X-10.876 Y12.427
X-11.023 Y12.458
X-11.166 Y12.502
X-11.323 Y12.565
X-11.481 Y12.642
X-11.643 Y12.739
X-11.81 Y12.858
X-11.975 Y12.997
X-12.132 Y13.152
X-12.283 Y13.327
X-12.423 Y13.52
X-12.551 Y13.728
X-12.662 Y13.947
X-12.755 Y14.173
X-12.829 Y14.403
X-12.882 Y14.632
X-12.891 Y14.69
X-12.889 Y14.907
X-12.821 Y15.113
X-12.694 Y15.288
X-12.679 Y15.303
X-12.469 Y15.499
X-12.37 Y15.586
X-12.185 Y15.746
X-12.042 Y15.869
X-11.902 Y15.985
X-11.593 Y16.235
G2 X-11.296 Y16.27 Z-6.979 I0.179 J-0.241 F2000
G1 X-11.25 Y16.244 Z-6.957
X-11.212 Y16.209 Z-6.934
X-11.182 Y16.165 Z-6.912
X-11.165 Y16.121
X-11.156 Y16.074
X-11.158 Y16.026
X-11.169 Y15.98
G2 X-12.249 Y15.322 I-0.943 J0.333
G1 X-12.326 Y15.336 Z-6.945
X-12.402 Y15.356 Z-6.979
G3 X-12.694 Y15.288 Z-7.112 I-0.087 J-0.287
G1 X-12.752 Y15.229
X-12.955 Y15.019
X-13.036 Y14.933
X-13.09 Y14.873
X-13.186 Y14.758
X-13.257 Y14.626
X-13.307 Y14.484
X-13.34 Y14.338
X-13.358 Y14.189
X-13.362 Y14.039
X-13.353 Y13.878
X-13.33 Y13.713
X-13.29 Y13.535
X-13.232 Y13.347
X-13.156 Y13.158
X-13.062 Y12.968
X-12.947 Y12.776
X-12.814 Y12.589
X-12.663 Y12.411
X-12.498 Y12.244
X-12.321 Y12.093
X-12.136 Y11.958
X-11.944 Y11.841
X-11.752 Y11.743
X-11.563 Y11.667
X-11.496 Y11.645
X-11.294 Y11.612
X-11.092 Y11.639
X-10.905 Y11.724
X-10.752 Y11.858
X-10.714 Y11.902
X-10.466 Y12.185
X-10.202 Y12.472
X-10.037 Y12.631
G3 X-9.965 Y12.922 Z-6.979 I-0.216 J0.208
G1 X-9.983 Y12.972 Z-6.957
X-10.007 Y13.018 Z-6.934
X-10.038 Y13.06 Z-6.912
G3 X-10.567 Y13.106 I-0.288 J-0.241
X-10.656 Y12.998 I0.241 J-0.288
X-10.753 Y12.305 I0.879 J-0.477
G1 X-10.733 Y12.229 Z-6.945
X-10.707 Y12.155 Z-6.979
X-10.692 Y12.101 Z-7.003
X-10.686 Y12.045 Z-7.027
X-10.694 Y11.978 Z-7.055
X-10.716 Y11.915 Z-7.084
X-10.752 Y11.858 Z-7.112
X-10.949 Y11.619 F1800
X-11.052 Y11.491
X-11.152 Y11.379
X-11.276 Y11.295
X-11.414 Y11.237
X-11.559 Y11.2
X-11.708 Y11.181
X-11.858 Y11.179
X-12.008 Y11.191
X-12.156 Y11.215
X-12.319 Y11.256
X-12.487 Y11.312
X-12.659 Y11.386
X-12.84 Y11.482
X-13.022 Y11.598
X-13.199 Y11.731
X-13.371 Y11.884
X-13.536 Y12.057
X-13.691 Y12.247
X-13.831 Y12.451
X-13.954 Y12.664
X-14.059 Y12.885
X-14.143 Y13.107
X-14.153 Y13.142
X-14.18 Y13.362
X-14.137 Y13.579
X-14.029 Y13.771
X-13.886 Y13.952
X-13.708 Y14.169
X-13.602 Y14.297
X-13.468 Y14.452
X-13.319 Y14.622
X-13.216 Y14.736
X-13.09 Y14.873
G2 X-12.801 Y14.954 Z-6.979 I0.214 J-0.21 F2000
G1 X-12.752 Y14.936 Z-6.957
X-12.707 Y14.909 Z-6.934
X-12.668 Y14.875 Z-6.912
G2 X-12.598 Y14.611 I-0.204 J-0.195
X-13.591 Y13.856 I-0.97 J0.245
G1 X-13.669 Y13.861 Z-6.945
X-13.747 Y13.872 Z-6.979
G3 X-14.029 Y13.771 Z-7.112 I-0.054 J-0.295
G1 X-14.169 Y13.595
X-14.374 Y13.319
X-14.453 Y13.191
X-14.507 Y13.051
X-14.539 Y12.905
X-14.553 Y12.756
X-14.552 Y12.606
X-14.537 Y12.456
X-14.507 Y12.298
X-14.464 Y12.139
X-14.402 Y11.968
X-14.32 Y11.789
X-14.222 Y11.613
X-14.104 Y11.436
X-13.966 Y11.261
X-13.809 Y11.092
X-13.637 Y10.935
X-13.452 Y10.79
X-13.257 Y10.663
X-13.056 Y10.552
X-12.851 Y10.461
X-12.648 Y10.389
X-12.451 Y10.337
X-12.37 Y10.322
X-12.163 Y10.316
X-11.964 Y10.37
X-11.789 Y10.48
X-11.653 Y10.637
X-11.569 Y10.768
X-11.381 Y11.052
X-11.335 Y11.119
X-11.177 Y11.335
X-11.052 Y11.491
G3 X-11.016 Y11.789 Z-6.979 I-0.24 J0.18
G1 X-11.04 Y11.835 Z-6.957
X-11.07 Y11.878 Z-6.934
X-11.106 Y11.917 Z-6.912
G3 X-11.644 Y11.9 I-0.26 J-0.278
X-11.725 Y11.767 I0.278 J-0.26
X-11.719 Y11.079 I0.942 J-0.335
G1 X-11.688 Y11.006 Z-6.945
X-11.652 Y10.937 Z-6.979
G2 X-11.653 Y10.637 Z-7.112 I-0.261 J-0.148
G1 X-11.749 Y10.485 F1800
X-11.902 Y10.231
X-11.985 Y10.106
X-12.096 Y10.005
X-12.225 Y9.929
X-12.364 Y9.872
X-12.508 Y9.833
X-12.657 Y9.81
X-12.806 Y9.801
X-12.956 Y9.806
X-13.124 Y9.824
X-13.295 Y9.857
X-13.478 Y9.907
X-13.671 Y9.977
X-13.865 Y10.066
X-14.057 Y10.174
X-14.25 Y10.303
X-14.438 Y10.452
X-14.617 Y10.619
X-14.784 Y10.802
X-14.934 Y10.997
X-15.068 Y11.201
X-15.182 Y11.411
X-15.198 Y11.447
X-15.254 Y11.659
X-15.242 Y11.879
X-15.163 Y12.084
X-15.103 Y12.185
X-15.019 Y12.326
X-14.931 Y12.469
X-14.736 Y12.778
X-14.568 Y13.036
X-14.374 Y13.319
G2 X-14.095 Y13.428 Z-6.979 I0.234 J-0.187 F2000
G1 X-14.044 Y13.416 Z-6.957
X-13.997 Y13.394 Z-6.934
X-13.954 Y13.363 Z-6.912
X-13.912 Y13.315
X-13.881 Y13.259
X-13.864 Y13.197
X-13.863 Y13.133
G2 X-14.74 Y12.23 I-0.996 J0.09
G1 X-14.819 Y12.223 Z-6.945
X-14.897 Z-6.979
G3 X-15.163 Y12.084 Z-7.112 I-0.012 J-0.3
G1 X-15.269 Y11.902
X-15.429 Y11.619
X-15.491 Y11.482
X-15.531 Y11.338
X-15.547 Y11.189
X-15.545 Y11.039
X-15.526 Y10.89
X-15.493 Y10.743
X-15.446 Y10.594
X-15.385 Y10.443
X-15.303 Y10.28
X-15.204 Y10.117
X-15.087 Y9.956
X-14.949 Y9.794
X-14.791 Y9.637
X-14.616 Y9.488
X-14.428 Y9.353
X-14.227 Y9.232
X-14.018 Y9.128
X-13.805 Y9.042
X-13.59 Y8.975
X-13.381 Y8.928
X-13.177 Y8.899
X-13.058 Y8.892
X-12.847 Y8.912
X-12.651 Y8.994
X-12.489 Y9.13
X-12.375 Y9.31
X-12.356 Y9.352
X-12.227 Y9.635
X-12.185 Y9.721
X-12.083 Y9.918
X-11.902 Y10.231
G3 X-11.909 Y10.531 Z-6.979 I-0.263 J0.144
G1 X-11.939 Y10.574 Z-6.957
X-11.975 Y10.612 Z-6.934
X-12.015 Y10.645 Z-6.912
G3 X-12.552 Y10.554 I-0.223 J-0.314
X-12.617 Y10.397 I0.314 J-0.223
X-12.505 Y9.737 I0.985 J-0.172
G1 X-12.464 Y9.67 Z-6.945
X-12.418 Y9.606 Z-6.979
G2 X-12.375 Y9.31 Z-7.112 I-0.236 J-0.186
G1 X-12.481 Y9.068 F1800
X-12.577 Y8.842
X-12.643 Y8.707
X-12.744 Y8.596
X-12.863 Y8.506
X-12.995 Y8.433
X-13.134 Y8.378
X-13.279 Y8.337
X-13.426 Y8.31
X-13.58 Y8.296
X-13.75 Y8.293
X-13.925 Y8.304
X-14.117 Y8.333
X-14.319 Y8.379
X-14.522 Y8.443
X-14.729 Y8.528
X-14.939 Y8.634
X-15.146 Y8.759
X-15.345 Y8.904
X-15.533 Y9.065
X-15.707 Y9.24
X-15.864 Y9.426
X-16.005 Y9.624
X-16.087 Y9.827
X-16.103 Y10.045
X-16.05 Y10.258
X-15.954 Y10.485
X-15.83 Y10.768
X-15.705 Y11.052
X-15.576 Y11.335
X-15.429 Y11.619
G2 X-15.166 Y11.762 Z-6.979 I0.256 J-0.156 F2000
G1 X-15.114 Y11.756 Z-6.957
X-15.064 Y11.74 Z-6.934
X-15.018 Y11.715 Z-6.912
X-14.971 Y11.676
X-14.934 Y11.626
X-14.909 Y11.57
X-14.897 Y11.51
G2 X-15.65 Y10.456 I-0.996 J-0.084
G1 X-15.727 Y10.44 Z-6.945
X-15.805 Y10.43 Z-6.979
G3 X-16.05 Y10.258 Z-7.112 I0.027 J-0.299
G1 X-16.153 Y10.009
X-16.249 Y9.762
X-16.297 Y9.62
X-16.317 Y9.471
X-16.314 Y9.322
X-16.291 Y9.173
X-16.253 Y9.028
X-16.201 Y8.887
X-16.134 Y8.744
X-16.053 Y8.603
X-15.951 Y8.454
X-15.829 Y8.304
X-15.691 Y8.159
X-15.534 Y8.019
X-15.357 Y7.884
X-15.163 Y7.761
X-14.957 Y7.651
X-14.741 Y7.558
X-14.52 Y7.483
X-14.296 Y7.427
X-14.073 Y7.389
X-13.857 Y7.37
X-13.651 Y7.369
X-13.553 Y7.376
X-13.344 Y7.425
X-13.16 Y7.534
X-13.017 Y7.694
X-12.93 Y7.889
X-12.917 Y7.935
X-12.825 Y8.218
X-12.752 Y8.411
X-12.717 Y8.501
X-12.602 Y8.785
X-12.577 Y8.842
G3 X-12.623 Y9.138 Z-6.979 I-0.28 J0.108
G1 X-12.678 Y9.194 Z-6.945
X-12.743 Y9.238 Z-6.912
G3 X-13.28 Y9.079 I-0.188 J-0.348
X-13.328 Y8.882 I0.348 J-0.188
X-13.12 Y8.293 I1. J0.02
G1 X-13.07 Y8.232 Z-6.945
X-13.015 Y8.176 Z-6.979
G2 X-12.93 Y7.889 Z-7.112 I-0.206 J-0.218
G1 X-12.995 Y7.651 F1800
X-13.053 Y7.424
X-13.096 Y7.28
X-13.175 Y7.152
X-13.277 Y7.043
X-13.395 Y6.95
X-13.524 Y6.873
X-13.66 Y6.811
X-13.802 Y6.762
X-13.951 Y6.725
X-14.114 Y6.698
X-14.288 Y6.683
X-14.48 Y6.682
X-14.581 Y6.69
X-14.789 Y6.714
X-15.006 Y6.758
X-15.224 Y6.82
X-15.443 Y6.902
X-15.661 Y7.004
X-15.875 Y7.126
X-16.079 Y7.266
X-16.271 Y7.421
X-16.446 Y7.587
X-16.535 Y7.687
X-16.657 Y7.878
X-16.712 Y8.098
X-16.693 Y8.324
X-16.648 Y8.501
X-16.574 Y8.785
X-16.492 Y9.068
X-16.436 Y9.247
X-16.402 Y9.352
X-16.299 Y9.635
X-16.249 Y9.762
G2 X-16.009 Y9.942 Z-6.979 I0.276 J-0.118 F2000
G1 X-15.957 Z-6.957
X-15.906 Y9.931 Z-6.934
X-15.859 Y9.909 Z-6.912
X-15.814 Y9.873
X-15.779 Y9.826
X-15.757 Y9.773
G2 X-16.328 Y8.582 I-0.963 J-0.271
G1 X-16.402 Y8.554 Z-6.945
X-16.477 Y8.532 Z-6.979
G3 X-16.693 Y8.324 Z-7.112 I0.073 J-0.291
G1 X-16.719 Y8.218
X-16.787 Y7.935
X-16.823 Y7.779
X-16.85 Y7.631
X-16.854 Y7.481
X-16.835 Y7.332
X-16.798 Y7.187
X-16.745 Y7.047
X-16.679 Y6.912
X-16.601 Y6.784
X-16.513 Y6.662
X-16.417 Y6.548
X-16.312 Y6.44
X-16.201 Y6.339
X-16.111 Y6.212
X-16.051 Y6.067
X-16.038 Y5.991
X-16.001 Y5.368
X-15.566 Y5.37
X-15.416 Y5.372
X-15.266 Y5.375
X-15.116 Y5.38
X-14.966 Y5.387
X-14.817 Y5.398
X-14.667 Y5.411
X-14.518 Y5.429
X-14.37 Y5.451
X-14.222 Y5.477
X-14.076 Y5.508
X-13.93 Y5.545
X-13.822 Y5.577
X-13.642 Y5.66
X-13.492 Y5.791
X-13.385 Y5.958
X-13.329 Y6.148
X-13.316 Y6.234
X-13.264 Y6.518
X-13.201 Y6.801
X-13.135 Y7.085
X-13.053 Y7.424
G3 X-13.145 Y7.709 Z-6.979 I-0.293 J0.063
G1 X-13.208 Y7.756 Z-6.945
X-13.278 Y7.79 Z-6.912
G3 X-13.602 Y7.773 I-0.142 J-0.386
X-13.813 Y7.527 I0.182 J-0.369
X-13.569 Y6.525 I0.955 J-0.298
G1 X-13.511 Y6.472 Z-6.945
X-13.45 Y6.423 Z-6.979
G2 X-13.329 Y6.148 Z-7.112 I-0.177 J-0.242
G1 X-13.397 Y5.668 F1800
X-13.517 Y4.817
X-13.554 Y4.534
X-13.58 Y4.251
